;FLAVOR:Marlin
;TIME:2534
;Filament used: 0.603036m
;Layer height: 0.12
;MINX:110.777
;MINY:91.779
;MINZ:0.12
;MAXX:151.912
;MAXY:135.662
;MAXZ:24.96
;TARGET_MACHINE.NAME:Creality Ender-3
;Generated with Cura_SteamEngine 5.7.1
M140 S50
M105
M190 S50
M104 S200
M105
M109 S200
M82 ;absolute extrusion mode
; Ender 3 Custom Start G-code
G92 E0 ; Reset Extruder
G28 ; Home all axes
G1 Z2.0 F3000 ; Move Z Axis up little to prevent scratching of Heat Bed
G1 X0.1 Y20 Z0.3 F5000.0 ; Move to start position
G1 X0.1 Y200.0 Z0.3 F1500.0 E15 ; Draw the first line
G1 X0.4 Y200.0 Z0.3 F5000.0 ; Move to side a little
G1 X0.4 Y20 Z0.3 F1500.0 E30 ; Draw the second line
G92 E0 ; Reset Extruder
G1 Z2.0 F3000 ; Move Z Axis up little to prevent scratching of Heat Bed
G1 X5 Y20 Z0.3 F5000.0 ; Move over to prevent blob squish
G92 E0
G92 E0
G1 F2700 E-5
;LAYER_COUNT:208
;LAYER:0
M107
G0 F6000 X114.129 Y101.678 Z0.12
;TYPE:SKIRT
G1 F2700 E0
G1 F1200 X114.916 Y100.834 E0.02303
G1 X115.459 Y100.281 E0.0385
G1 X115.866 Y99.889 E0.04977
G1 X116.806 Y99.028 E0.07521
G1 X116.92 Y98.912 E0.07846
G1 X117.578 Y98.313 E0.09621
G1 X119.438 Y96.527 E0.14767
G1 X120.509 Y95.453 E0.17794
G1 X121.242 Y94.783 E0.19776
G1 X122.017 Y94.194 E0.21718
G1 X122.84 Y93.675 E0.2366
G1 X123.675 Y93.245 E0.25534
G1 X124.595 Y92.869 E0.27518
G1 X125.162 Y92.683 E0.28709
G1 X126.082 Y92.414 E0.30622
G1 X127.047 Y92.154 E0.32616
G1 X127.998 Y91.943 E0.3456
G1 X128.964 Y91.818 E0.36504
G1 X129.936 Y91.779 E0.38445
G1 X130.838 Y91.82 E0.40247
G1 X131.869 Y91.959 E0.42323
G1 X132.681 Y92.138 E0.43982
G1 X133.954 Y92.477 E0.46611
G1 X134.676 Y92.69 E0.48114
G1 X135.49 Y92.953 E0.49821
G1 X137.943 Y93.719 E0.54949
G1 X140.89 Y94.538 E0.61053
G1 X141.714 Y94.758 E0.62755
G1 X142.439 Y94.973 E0.64264
G1 X143.359 Y95.293 E0.66208
G1 X144.247 Y95.693 E0.68151
G1 X145.097 Y96.17 E0.70097
G1 X145.899 Y96.72 E0.72037
G1 X146.645 Y97.333 E0.73964
G1 X147.172 Y97.839 E0.75422
G1 X148.09 Y98.793 E0.78064
G1 X148.582 Y99.33 E0.79518
G1 X149.207 Y100.077 E0.81461
G1 X149.763 Y100.875 E0.83402
G1 X150.214 Y101.657 E0.85204
G1 X150.653 Y102.607 E0.87292
G1 X150.975 Y103.51 E0.89205
G1 X151.226 Y104.338 E0.90932
G1 X151.514 Y105.364 E0.93059
G1 X151.719 Y106.243 E0.9486
G1 X151.863 Y107.278 E0.96945
G1 X151.912 Y108.251 E0.98889
G1 X151.873 Y109.224 E1.00833
G1 X151.75 Y110.184 E1.02764
G1 X151.6 Y110.901 E1.04226
G1 X151.433 Y111.552 E1.05567
G1 X150.375 Y115.306 E1.1335
G1 X149.779 Y117.691 E1.18256
G1 X149.226 Y120.198 E1.2338
G1 X148.867 Y122.058 E1.2716
G1 X148.616 Y123.439 E1.29961
G1 X148.415 Y124.325 E1.31774
G1 X148.166 Y125.248 E1.33682
G1 X147.895 Y126.177 E1.35613
G1 X147.577 Y127.098 E1.37557
G1 X147.179 Y127.987 E1.39501
G1 X146.704 Y128.837 E1.41444
G1 X146.156 Y129.642 E1.43388
G1 X145.551 Y130.382 E1.45295
G1 X145.233 Y130.723 E1.46226
G1 X144.356 Y131.616 E1.48723
G1 X143.841 Y132.116 E1.50156
G1 X143.166 Y132.717 E1.51959
G1 X142.329 Y133.339 E1.54041
G1 X141.527 Y133.83 E1.55917
G1 X140.646 Y134.266 E1.57879
G1 X139.326 Y134.754 E1.60687
G1 X138.26 Y135.067 E1.62904
G1 X137.381 Y135.3 E1.64719
G1 X136.429 Y135.506 E1.66663
G1 X135.463 Y135.627 E1.68606
G1 X134.56 Y135.662 E1.70409
G1 X133.145 Y135.566 E1.73239
G1 X132.298 Y135.452 E1.74945
G1 X129.737 Y135.136 E1.80094
G1 X127.231 Y134.898 E1.85118
G1 X125.955 Y134.813 E1.8767
G1 X125.154 Y134.747 E1.89274
G1 X124.258 Y134.634 E1.91076
G1 X123.11 Y134.378 E1.93423
G1 X122.237 Y134.134 E1.95232
G1 X121.271 Y133.84 E1.97247
G1 X120.354 Y133.512 E1.99191
G1 X119.533 Y133.136 E2.00993
G1 X118.627 Y132.618 E2.03076
G1 X117.851 Y132.077 E2.04963
G1 X116.836 Y131.2 E2.0764
G1 X115.887 Y130.264 E2.103
G1 X115.39 Y129.755 E2.1172
G1 X114.767 Y129.054 E2.13591
G1 X114.166 Y128.244 E2.15604
G1 X113.659 Y127.413 E2.17547
G1 X113.221 Y126.528 E2.19517
G1 X112.77 Y125.317 E2.22096
G1 X112.491 Y124.401 E2.24007
G1 X111.399 Y120.555 E2.31986
G1 X111.177 Y119.608 E2.33927
G1 X111.047 Y118.714 E2.3573
G1 X110.991 Y117.781 E2.37595
G1 X110.974 Y116.779 E2.39595
G1 X110.97 Y115.68 E2.41788
G1 X110.889 Y113.159 E2.46821
G1 X110.806 Y111.758 E2.49622
G1 X110.777 Y111.096 E2.50945
G1 X110.779 Y110.139 E2.52854
G1 X110.868 Y109.136 E2.54864
G1 X111.026 Y108.247 E2.56666
G1 X111.164 Y107.69 E2.57811
G1 X111.387 Y106.887 E2.59474
G1 X111.709 Y105.838 E2.61664
G1 X112.043 Y104.924 E2.63606
G1 X112.441 Y104.073 E2.65481
G1 X112.948 Y103.201 E2.67493
G1 X113.512 Y102.405 E2.6944
G1 X114.129 Y101.678 E2.71343
G0 F6000 X114.422 Y101.951
G1 F1200 X115.209 Y101.107 E2.73646
G1 X115.737 Y100.569 E2.7515
G1 X116.136 Y100.184 E2.76257
G1 X117.076 Y99.323 E2.78801
G1 X117.189 Y99.208 E2.79122
G1 X117.855 Y98.602 E2.80919
G1 X119.715 Y96.816 E2.86065
G1 X120.792 Y95.735 E2.89111
G1 X121.485 Y95.101 E2.90985
G1 X122.231 Y94.532 E2.92857
G1 X123.023 Y94.031 E2.94727
G1 X123.858 Y93.601 E2.96602
G1 X124.72 Y93.249 E2.9846
G1 X125.275 Y93.067 E2.99625
G1 X126.186 Y92.8 E3.0152
G1 X127.134 Y92.544 E3.0348
G1 X128.05 Y92.34 E3.05352
G1 X128.981 Y92.218 E3.07226
G1 X129.918 Y92.179 E3.09098
G1 X130.82 Y92.22 E3.10899
G1 X131.783 Y92.35 E3.12839
G1 X132.578 Y92.525 E3.14463
G1 X133.841 Y92.861 E3.17071
G1 X134.553 Y93.071 E3.18553
G1 X135.367 Y93.334 E3.2026
G1 X137.824 Y94.101 E3.25396
G1 X140.787 Y94.924 E3.31533
G1 X141.6 Y95.141 E3.33212
G1 X142.308 Y95.351 E3.34686
G1 X143.195 Y95.658 E3.36559
G1 X144.052 Y96.042 E3.38433
G1 X144.871 Y96.5 E3.40306
G1 X145.645 Y97.029 E3.42177
G1 X146.368 Y97.622 E3.44043
G1 X146.895 Y98.128 E3.45501
G1 X147.795 Y99.063 E3.48091
G1 X148.276 Y99.587 E3.4951
G1 X148.879 Y100.306 E3.51383
G1 X149.416 Y101.075 E3.53255
G1 X149.867 Y101.857 E3.55056
G1 X150.276 Y102.742 E3.57002
G1 X150.592 Y103.626 E3.58875
G1 X150.841 Y104.446 E3.60585
G1 X151.124 Y105.455 E3.62677
G1 X151.329 Y106.334 E3.64478
G1 X151.464 Y107.298 E3.6642
G1 X151.512 Y108.236 E3.68295
G1 X151.476 Y109.174 E3.70168
G1 X151.358 Y110.102 E3.72035
G1 X151.208 Y110.819 E3.73497
G1 X151.048 Y111.443 E3.74782
G1 X149.99 Y115.197 E3.82566
G1 X149.388 Y117.605 E3.87519
G1 X148.835 Y120.112 E3.92642
G1 X148.474 Y121.982 E3.96443
G1 X148.222 Y123.367 E3.99252
G1 X148.029 Y124.221 E4.00999
G1 X147.782 Y125.136 E4.02891
G1 X147.517 Y126.047 E4.04784
G1 X147.212 Y126.935 E4.06658
G1 X146.83 Y127.792 E4.0853
G1 X146.373 Y128.612 E4.10404
G1 X145.846 Y129.389 E4.12277
G1 X145.258 Y130.109 E4.14132
G1 X144.94 Y130.45 E4.15063
G1 X144.077 Y131.329 E4.17521
G1 X143.575 Y131.817 E4.18918
G1 X142.9 Y132.418 E4.20722
G1 X142.119 Y132.998 E4.22663
G1 X141.35 Y133.471 E4.24465
G1 X140.469 Y133.907 E4.26426
G1 X139.213 Y134.37 E4.29098
G1 X138.157 Y134.68 E4.31294
G1 X137.296 Y134.909 E4.33072
G1 X136.379 Y135.109 E4.34945
G1 X135.448 Y135.227 E4.36818
G1 X134.545 Y135.262 E4.38621
G1 X133.173 Y135.167 E4.41366
G1 X132.347 Y135.055 E4.43029
G1 X129.786 Y134.739 E4.48179
G1 X127.258 Y134.499 E4.53246
G1 X125.988 Y134.414 E4.55786
G1 X125.204 Y134.35 E4.57356
G1 X124.308 Y134.237 E4.59158
G1 X123.218 Y133.993 E4.61387
G1 X122.353 Y133.751 E4.6318
G1 X121.405 Y133.463 E4.65157
G1 X120.521 Y133.148 E4.6703
G1 X119.7 Y132.772 E4.68832
G1 X118.855 Y132.289 E4.70774
G1 X118.113 Y131.774 E4.72577
G1 X117.098 Y130.897 E4.75254
G1 X116.173 Y129.985 E4.77846
G1 X115.689 Y129.489 E4.79229
G1 X115.066 Y128.788 E4.811
G1 X114.507 Y128.035 E4.82972
G1 X114.017 Y127.235 E4.84844
G1 X113.596 Y126.388 E4.86732
G1 X113.153 Y125.2 E4.89262
G1 X112.876 Y124.292 E4.91156
G1 X111.788 Y120.463 E4.991
G1 X111.573 Y119.55 E5.00972
G1 X111.443 Y118.656 E5.02775
G1 X111.391 Y117.774 E5.04538
G1 X111.374 Y116.778 E5.06526
G1 X111.37 Y115.679 E5.08719
G1 X111.289 Y113.146 E5.13776
G1 X111.206 Y111.74 E5.16587
G1 X111.177 Y111.097 E5.17872
G1 X111.179 Y110.14 E5.19781
G1 X111.262 Y109.206 E5.21653
G1 X111.42 Y108.317 E5.23454
G1 X111.549 Y107.797 E5.24524
G1 X111.769 Y107.004 E5.26166
G1 X112.085 Y105.975 E5.28314
G1 X112.406 Y105.093 E5.30187
G1 X112.787 Y104.274 E5.3199
G1 X113.275 Y103.432 E5.33932
G1 X113.817 Y102.664 E5.35808
G1 X114.422 Y101.951 E5.37674
G0 F6000 X114.714 Y102.224
G1 F1200 X115.495 Y101.387 E5.39958
G1 X116.015 Y100.857 E5.4144
G1 X116.406 Y100.479 E5.42525
G1 X117.346 Y99.618 E5.45069
G1 X117.458 Y99.504 E5.45388
G1 X118.132 Y98.891 E5.47206
G1 X119.992 Y97.105 E5.52352
G1 X121.063 Y96.03 E5.5538
G1 X121.728 Y95.419 E5.57183
G1 X122.445 Y94.87 E5.58985
G1 X123.207 Y94.386 E5.60786
G1 X124.009 Y93.971 E5.62588
G1 X124.845 Y93.629 E5.64391
G1 X125.388 Y93.451 E5.65531
G1 X126.291 Y93.186 E5.67409
G1 X127.221 Y92.934 E5.69332
G1 X128.103 Y92.737 E5.71136
G1 X128.998 Y92.618 E5.72937
G1 X129.9 Y92.579 E5.74739
G1 X130.802 Y92.62 E5.76541
G1 X131.697 Y92.741 E5.78343
G1 X132.475 Y92.912 E5.79933
G1 X133.728 Y93.245 E5.8252
G1 X134.43 Y93.452 E5.83981
G1 X135.244 Y93.715 E5.85688
G1 X137.705 Y94.483 E5.90833
G1 X140.684 Y95.311 E5.97003
G1 X141.487 Y95.525 E5.98661
G1 X142.178 Y95.729 E6.00099
G1 X143.032 Y96.023 E6.01902
G1 X143.857 Y96.391 E6.03704
G1 X144.646 Y96.831 E6.05507
G1 X145.392 Y97.339 E6.07308
G1 X146.091 Y97.911 E6.09111
G1 X146.618 Y98.417 E6.10569
G1 X147.501 Y99.334 E6.13109
G1 X147.97 Y99.844 E6.14492
G1 X148.551 Y100.535 E6.16293
G1 X149.069 Y101.275 E6.18096
G1 X149.52 Y102.057 E6.19898
G1 X149.899 Y102.877 E6.217
G1 X150.209 Y103.743 E6.23536
G1 X150.456 Y104.554 E6.25228
G1 X150.734 Y105.546 E6.27284
G1 X150.939 Y106.425 E6.29085
G1 X151.065 Y107.319 E6.30887
G1 X151.112 Y108.221 E6.32689
G1 X151.079 Y109.124 E6.34492
G1 X150.966 Y110.02 E6.36294
G1 X150.816 Y110.737 E6.37756
G1 X150.663 Y111.334 E6.38986
G1 X149.605 Y115.088 E6.4677
G1 X148.997 Y117.519 E6.5177
G1 X148.444 Y120.026 E6.56894
G1 X148.081 Y121.906 E6.60715
G1 X147.832 Y123.279 E6.63499
G1 X147.643 Y124.117 E6.65214
G1 X147.398 Y125.024 E6.67088
G1 X147.138 Y125.918 E6.68946
G1 X146.846 Y126.773 E6.70749
G1 X146.48 Y127.598 E6.72551
G1 X146.042 Y128.388 E6.74353
G1 X145.536 Y129.136 E6.76155
G1 X144.965 Y129.836 E6.77958
G1 X144.647 Y130.177 E6.78889
G1 X143.798 Y131.042 E6.81307
G1 X143.309 Y131.518 E6.82669
G1 X142.634 Y132.119 E6.84473
G1 X141.909 Y132.657 E6.86274
G1 X141.14 Y133.13 E6.88076
G1 X140.331 Y133.532 E6.89879
G1 X139.1 Y133.986 E6.92497
G1 X138.054 Y134.293 E6.94673
G1 X137.21 Y134.518 E6.96416
G1 X136.328 Y134.712 E6.98218
G1 X135.433 Y134.827 E7.00019
G1 X134.53 Y134.862 E7.01822
G1 X133.201 Y134.768 E7.04481
G1 X132.396 Y134.658 E7.06102
G1 X129.835 Y134.342 E7.11252
G1 X127.285 Y134.1 E7.16363
G1 X126.02 Y134.015 E7.18894
G1 X125.254 Y133.953 E7.20427
G1 X124.358 Y133.84 E7.22229
G1 X123.326 Y133.608 E7.2434
G1 X122.469 Y133.368 E7.26116
G1 X121.539 Y133.086 E7.28056
G1 X120.688 Y132.784 E7.29858
G1 X119.867 Y132.408 E7.3166
G1 X119.083 Y131.96 E7.33462
G1 X118.341 Y131.445 E7.35264
G1 X117.379 Y130.612 E7.37804
G1 X116.459 Y129.706 E7.4038
G1 X115.988 Y129.223 E7.41727
G1 X115.387 Y128.549 E7.43529
G1 X114.848 Y127.825 E7.4533
G1 X114.375 Y127.056 E7.47132
G1 X113.971 Y126.248 E7.48935
G1 X113.536 Y125.083 E7.51416
G1 X113.261 Y124.183 E7.53294
G1 X112.177 Y120.371 E7.61203
G1 X111.969 Y119.492 E7.63006
G1 X111.839 Y118.598 E7.64809
G1 X111.791 Y117.767 E7.6647
G1 X111.774 Y116.777 E7.68446
G1 X111.77 Y115.678 E7.70639
G1 X111.689 Y113.133 E7.7572
G1 X111.606 Y111.722 E7.78541
G1 X111.577 Y111.079 E7.79825
G1 X111.577 Y110.175 E7.81629
G1 X111.656 Y109.276 E7.8343
G1 X111.814 Y108.387 E7.85232
G1 X111.935 Y107.903 E7.86228
G1 X112.151 Y107.121 E7.87847
G1 X112.461 Y106.111 E7.89955
G1 X112.769 Y105.262 E7.91758
G1 X113.15 Y104.443 E7.9356
G1 X113.602 Y103.662 E7.95361
G1 X114.122 Y102.923 E7.97164
G1 X114.714 Y102.224 E7.98992
G1 F2700 E2.98992
G0 F6000 X122.36 Y109.26
G1 F2700 E7.98992
G1 F1200 X123.383 Y108.182 E8.01958
G1 X124.794 Y107.785 E8.04883
G1 X125.45 Y107.969 E8.06243
G1 X125.558 Y107.968 E8.06458
G1 X126.786 Y107.622 E8.09004
G1 X126.841 Y107.637 E8.09118
G1 X126.966 Y107.631 E8.09368
G1 X127.037 Y107.584 E8.09538
G1 X127.173 Y107.446 E8.09924
G1 X127.229 Y107.334 E8.10174
G1 X127.223 Y107.25 E8.10342
G1 X126.86 Y106.017 E8.12907
G1 X127.286 Y104.561 E8.15935
G1 X128.388 Y103.4 E8.19129
G1 X129.907 Y102.973 E8.22278
G1 X131.426 Y103.4 E8.25427
G1 X132.528 Y104.561 E8.28621
G1 X132.951 Y106.015 E8.31643
G1 X132.525 Y107.538 E8.34799
G1 X131.428 Y108.635 E8.37895
G1 X129.905 Y109.061 E8.41051
G1 X129.32 Y108.89 E8.42267
G1 X129.195 Y108.894 E8.42517
G1 X129.123 Y108.941 E8.42688
G1 X128.985 Y109.079 E8.43078
G1 X128.928 Y109.19 E8.43327
G1 X128.934 Y109.276 E8.43499
G1 X129.138 Y109.97 E8.44943
G1 X129.121 Y110.03 E8.45067
G1 X129.127 Y110.155 E8.45317
G1 X129.169 Y110.222 E8.45475
G1 X129.68 Y110.761 E8.46957
G1 X129.858 Y111.385 E8.48252
G1 X129.68 Y112.026 E8.49579
G1 X129.211 Y112.494 E8.50901
G1 X128.564 Y112.675 E8.52242
G1 X127.951 Y112.495 E8.53517
G1 X127.639 Y112.185 E8.54395
G1 X127.527 Y112.129 E8.54645
G1 X127.444 Y112.134 E8.54811
G1 X127.034 Y112.249 E8.5566
G1 X126.947 Y112.3 E8.55862
G1 X126.204 Y113.042 E8.57957
G1 X124.792 Y113.437 E8.60883
G1 X123.442 Y113.042 E8.6369
G1 X122.362 Y111.962 E8.66738
G1 X121.965 Y110.611 E8.69548
G1 X122.36 Y109.26 E8.72357
G0 F6000 X122.717 Y109.464
G1 F1200 X123.597 Y108.537 E8.74908
G1 X124.794 Y108.2 E8.7739
G1 X125.342 Y108.354 E8.78525
G1 X125.667 Y108.353 E8.79174
G1 X126.815 Y108.029 E8.81554
G1 X126.95 Y108.041 E8.81825
G1 X127.16 Y107.982 E8.8226
G1 X127.322 Y107.865 E8.82659
G1 X127.458 Y107.727 E8.83046
G1 X127.581 Y107.547 E8.83481
G1 X127.63 Y107.334 E8.83917
G1 X127.607 Y107.137 E8.84313
G1 X127.277 Y106.016 E8.86645
G1 X127.643 Y104.765 E8.89246
G1 X128.602 Y103.755 E8.92025
G1 X129.907 Y103.389 E8.9473
G1 X131.212 Y103.755 E8.97435
G1 X132.17 Y104.765 E9.00213
G1 X132.535 Y106.017 E9.02815
G1 X132.168 Y107.329 E9.05534
G1 X131.219 Y108.278 E9.08212
G1 X129.908 Y108.645 E9.10929
G1 X129.432 Y108.506 E9.11919
G1 X129.215 Y108.484 E9.12354
G1 X129.004 Y108.541 E9.1279
G1 X128.84 Y108.658 E9.13192
G1 X128.702 Y108.796 E9.13582
G1 X128.578 Y108.975 E9.14016
G1 X128.527 Y109.188 E9.14453
G1 X128.55 Y109.389 E9.14857
G1 X128.729 Y110 E9.16128
G1 X128.717 Y110.139 E9.16406
G1 X128.776 Y110.349 E9.16841
G1 X128.879 Y110.497 E9.17201
G1 X129.321 Y110.964 E9.18484
G1 X129.443 Y111.388 E9.19365
G1 X129.323 Y111.816 E9.20252
G1 X129.002 Y112.137 E9.21158
G1 X128.567 Y112.259 E9.22059
G1 X128.16 Y112.14 E9.22906
G1 X127.921 Y111.902 E9.23579
G1 X127.741 Y111.778 E9.24015
G1 X127.529 Y111.728 E9.2445
G1 X127.336 Y111.749 E9.24837
G1 X126.926 Y111.864 E9.25687
G1 X126.664 Y112.017 E9.26292
G1 X125.995 Y112.685 E9.28179
G1 X124.794 Y113.021 E9.30668
G1 X123.653 Y112.687 E9.3304
G1 X122.717 Y111.751 E9.35682
G1 X122.382 Y110.61 E9.38055
G1 X122.717 Y109.464 E9.40438
G0 F6000 X123.075 Y109.668
G1 F1200 X123.81 Y108.893 E9.42569
G1 X124.795 Y108.616 E9.44611
G1 X125.234 Y108.739 E9.45521
G1 X125.514 Y108.776 E9.46084
G1 X125.775 Y108.738 E9.46611
G1 X126.846 Y108.436 E9.48831
G1 X126.905 Y108.444 E9.4895
G1 X127.184 Y108.401 E9.49514
G1 X127.44 Y108.283 E9.50076
G1 X127.607 Y108.146 E9.50507
G1 X127.743 Y108.008 E9.50894
G1 X127.911 Y107.781 E9.51457
G1 X128.009 Y107.516 E9.52021
G1 X128.028 Y107.235 E9.52583
G1 X127.99 Y107.024 E9.53011
G1 X127.694 Y106.017 E9.55106
G1 X128.001 Y104.969 E9.57285
G1 X128.815 Y104.111 E9.59645
G1 X129.907 Y103.804 E9.61909
G1 X130.999 Y104.111 E9.64173
G1 X131.814 Y104.97 E9.66536
G1 X132.119 Y106.02 E9.68718
G1 X131.812 Y107.119 E9.70995
G1 X131.009 Y107.922 E9.73261
G1 X129.911 Y108.229 E9.75536
G1 X129.544 Y108.122 E9.76299
G1 X129.265 Y108.082 E9.76862
G1 X128.985 Y108.122 E9.77426
G1 X128.728 Y108.238 E9.77989
G1 X128.557 Y108.375 E9.78426
G1 X128.419 Y108.513 E9.78815
G1 X128.25 Y108.739 E9.79379
G1 X128.15 Y109.003 E9.79942
G1 X128.128 Y109.284 E9.80504
G1 X128.166 Y109.501 E9.80944
G1 X128.322 Y110.033 E9.8205
G1 X128.314 Y110.093 E9.82171
G1 X128.356 Y110.372 E9.82734
G1 X128.475 Y110.628 E9.83298
G1 X128.588 Y110.772 E9.83663
G1 X128.963 Y111.168 E9.84751
G1 X129.027 Y111.391 E9.85214
G1 X128.967 Y111.608 E9.85664
G1 X128.794 Y111.781 E9.86152
