;FLAVOR:Marlin
;TIME:310
;Filament used: 0.256678m
;Layer height: 0.28
;MINX:79.954
;MINY:92.145
;MINZ:0.28
;MAXX:141.826
;MAXY:142.848
;MAXZ:1.4
;TARGET_MACHINE.NAME:Creality Ender-3
;Generated with Cura_SteamEngine 5.7.1
M140 S65
M105
M190 S65
M104 S210
M105
M109 S210
M82 ;absolute extrusion mode
; Ender 3 Custom Start G-code
G92 E0 ; Reset Extruder
G28 ; Home all axes
G1 Z2.0 F3000 ; Move Z Axis up little to prevent scratching of Heat Bed
G1 X0.1 Y20 Z0.3 F5000.0 ; Move to start position
G1 X0.1 Y200.0 Z0.3 F1500.0 E15 ; Draw the first line
G1 X0.4 Y200.0 Z0.3 F5000.0 ; Move to side a little
G1 X0.4 Y20 Z0.3 F1500.0 E30 ; Draw the second line
G92 E0 ; Reset Extruder
G1 Z2.0 F3000 ; Move Z Axis up little to prevent scratching of Heat Bed
G1 X5 Y20 Z0.3 F5000.0 ; Move over to prevent blob squish
G92 E0
G92 E0
G1 F2700 E-5
;LAYER_COUNT:5
;LAYER:0
M107
G0 F6000 X84.082 Y95.994 Z0.28
;TYPE:SKIRT
G1 F2700 E0
G1 F1200 X84.869 Y95.418 E0.04541
G1 X85.702 Y94.915 E0.09072
G1 X86.577 Y94.488 E0.13606
G1 X87.487 Y94.14 E0.18143
G1 X88.424 Y93.872 E0.22681
G1 X89.31 Y93.7 E0.26883
G1 X90.653 Y93.579 E0.33162
G1 X91.294 Y93.565 E0.36148
G1 X94.445 Y93.565 E0.5082
G1 X97.029 Y93.528 E0.62853
G1 X99.594 Y93.419 E0.74808
G1 X102.073 Y93.243 E0.8638
G1 X104.574 Y92.996 E0.98083
G1 X107.06 Y92.678 E1.09753
G1 X109.004 Y92.376 E1.18913
G1 X109.896 Y92.254 E1.23106
G1 X111.147 Y92.16 E1.28947
G1 X112.009 Y92.146 E1.32962
G1 X128.02 Y92.145 E2.07515
G1 X128.854 Y92.157 E2.11399
G1 X129.802 Y92.212 E2.15821
G1 X130.196 Y92.253 E2.17666
G1 X131.123 Y92.393 E2.22031
G1 X132.05 Y92.614 E2.26469
G1 X132.512 Y92.747 E2.28707
G1 X133.426 Y93.056 E2.332
G1 X134.711 Y93.647 E2.39786
G1 X135.135 Y93.878 E2.42034
G1 X135.97 Y94.384 E2.4658
G1 X136.809 Y95.002 E2.51433
G1 X137.142 Y95.274 E2.53435
G1 X137.816 Y95.874 E2.57636
G1 X138.638 Y96.762 E2.63271
G1 X138.941 Y97.129 E2.65487
G1 X139.532 Y97.915 E2.70066
G1 X140.154 Y98.94 E2.75649
G1 X140.378 Y99.364 E2.77882
G1 X140.796 Y100.247 E2.82431
G1 X141.132 Y101.164 E2.86979
G1 X141.248 Y101.534 E2.88784
G1 X141.502 Y102.492 E2.93399
G1 X141.654 Y103.36 E2.97502
G1 X141.723 Y103.874 E2.99917
G1 X141.815 Y105.127 E3.05767
G1 X141.825 Y105.794 E3.08874
G1 X141.826 Y126.652 E4.05997
G1 X141.813 Y127.527 E4.10072
G1 X141.76 Y128.441 E4.14335
G1 X141.714 Y128.892 E4.16446
G1 X141.584 Y129.786 E4.20653
G1 X141.3 Y130.947 E4.26218
G1 X141.168 Y131.376 E4.28308
G1 X140.839 Y132.299 E4.32871
G1 X140.39 Y133.263 E4.37823
G1 X140.146 Y133.723 E4.40247
G1 X139.688 Y134.501 E4.44451
G1 X138.944 Y135.52 E4.50326
G1 X138.663 Y135.86 E4.5238
G1 X138.005 Y136.587 E4.56946
G1 X137.196 Y137.329 E4.62058
G1 X136.842 Y137.621 E4.64194
G1 X136.072 Y138.199 E4.68678
G1 X134.963 Y138.87 E4.74713
G1 X134.22 Y139.256 E4.78612
G1 X132.15 Y140.286 E4.89378
G1 X130.538 Y141.151 E4.97897
G1 X129.683 Y141.598 E5.02389
G1 X128.8 Y142.009 E5.06924
G1 X127.952 Y142.318 E5.11127
G1 X126.942 Y142.587 E5.15994
G1 X125.979 Y142.752 E5.20543
G1 X124.941 Y142.833 E5.25391
G1 X124.284 Y142.848 E5.28451
G1 X95.21 Y142.847 E6.63832
G1 X94.473 Y142.835 E6.67264
G1 X93.501 Y142.776 E6.71799
G1 X92.538 Y142.63 E6.76334
G1 X91.591 Y142.399 E6.80873
G1 X90.67 Y142.086 E6.85402
G1 X89.778 Y141.692 E6.89943
G1 X88.925 Y141.221 E6.9448
G1 X88.141 Y140.693 E6.98882
G1 X87.085 Y139.808 E7.05297
G1 X85.224 Y138.03 E7.17282
G1 X84.367 Y137.255 E7.22662
G1 X83.654 Y136.59 E7.27202
G1 X82.974 Y135.894 E7.31733
G1 X82.401 Y135.196 E7.35938
G1 X81.812 Y134.332 E7.40807
G1 X81.339 Y133.481 E7.45341
G1 X80.943 Y132.591 E7.49877
G1 X80.627 Y131.67 E7.54411
G1 X80.394 Y130.723 E7.58952
G1 X80.246 Y129.764 E7.6347
G1 X80.184 Y128.862 E7.6768
G1 X80.171 Y128.238 E7.70587
G1 X80.17 Y112.904 E8.41988
G1 X80.133 Y110.344 E8.5391
G1 X79.964 Y106.544 E8.71622
G1 X79.954 Y106.006 E8.74127
G1 X79.965 Y104.473 E8.81266
G1 X80.017 Y103.501 E8.85798
G1 X80.154 Y102.537 E8.90332
G1 X80.367 Y101.622 E8.94707
G1 X80.682 Y100.665 E8.99398
G1 X81.037 Y99.835 E9.03602
G1 X81.533 Y98.913 E9.08477
G1 X82.07 Y98.102 E9.13006
G1 X82.678 Y97.34 E9.17545
G1 X83.325 Y96.66 E9.21916
G1 X84.082 Y95.994 E9.26611
G0 F6000 X84.319 Y96.316
G1 F1200 X85.076 Y95.76 E9.30984
G1 X85.878 Y95.274 E9.35351
G1 X86.721 Y94.861 E9.39722
G1 X87.597 Y94.524 E9.44092
G1 X88.5 Y94.265 E9.48467
G1 X89.386 Y94.093 E9.52669
G1 X90.662 Y93.979 E9.58634
G1 X91.303 Y93.965 E9.6162
G1 X94.451 Y93.965 E9.76278
G1 X97.046 Y93.928 E9.88363
G1 X99.611 Y93.819 E10.00317
G1 X102.104 Y93.642 E10.11955
G1 X104.625 Y93.393 E10.23751
G1 X107.111 Y93.075 E10.35421
G1 X109.058 Y92.772 E10.44596
G1 X109.926 Y92.653 E10.48676
G1 X111.154 Y92.56 E10.5441
G1 X112.009 Y92.546 E10.58392
G1 X128.015 Y92.545 E11.32923
G1 X128.831 Y92.556 E11.36723
G1 X129.761 Y92.61 E11.41061
G1 X130.136 Y92.649 E11.42816
G1 X131.063 Y92.789 E11.47182
G1 X131.94 Y92.999 E11.51381
G1 X132.384 Y93.126 E11.53531
G1 X133.298 Y93.435 E11.58024
G1 X134.52 Y93.998 E11.64289
G1 X134.928 Y94.22 E11.66452
G1 X135.733 Y94.706 E11.7083
G1 X136.556 Y95.312 E11.75589
G1 X136.876 Y95.573 E11.77512
G1 X137.55 Y96.173 E11.81714
G1 X138.33 Y97.017 E11.87065
G1 X138.622 Y97.37 E11.89198
G1 X139.19 Y98.123 E11.9359
G1 X139.812 Y99.148 E11.99173
G1 X140.017 Y99.535 E12.01212
G1 X140.42 Y100.385 E12.05593
G1 X140.75 Y101.284 E12.10052
G1 X140.866 Y101.654 E12.11858
G1 X141.108 Y102.561 E12.16229
G1 X141.258 Y103.413 E12.20257
G1 X141.324 Y103.904 E12.22564
G1 X141.415 Y105.133 E12.28302
G1 X141.425 Y105.794 E12.3138
G1 X141.426 Y126.646 E13.28476
G1 X141.414 Y127.504 E13.32472
G1 X141.362 Y128.401 E13.36656
G1 X141.318 Y128.834 E13.38682
G1 X141.188 Y129.728 E13.42889
G1 X140.917 Y130.83 E13.48173
G1 X140.791 Y131.242 E13.50179
G1 X140.476 Y132.13 E13.54567
G1 X140.027 Y133.094 E13.59518
G1 X139.801 Y133.52 E13.61764
G1 X139.343 Y134.298 E13.65968
G1 X138.636 Y135.265 E13.71545
G1 X138.366 Y135.592 E13.7352
G1 X137.735 Y136.292 E13.77908
G1 X136.941 Y137.02 E13.82924
G1 X136.587 Y137.312 E13.85061
G1 X135.832 Y137.879 E13.89458
G1 X134.778 Y138.515 E13.9519
G1 X134.042 Y138.898 E13.99053
G1 X131.972 Y139.928 E14.09819
G1 X130.353 Y140.797 E14.18376
G1 X129.514 Y141.236 E14.22785
G1 X128.663 Y141.633 E14.27157
G1 X127.815 Y141.942 E14.3136
G1 X126.874 Y142.193 E14.35895
G1 X125.948 Y142.353 E14.40271
G1 X124.932 Y142.433 E14.45016
G1 X124.284 Y142.448 E14.48034
G1 X95.216 Y142.447 E15.83387
G1 X94.497 Y142.436 E15.86735
G1 X93.56 Y142.38 E15.91106
G1 X92.632 Y142.241 E15.95476
G1 X91.719 Y142.02 E15.9985
G1 X90.831 Y141.72 E16.04214
G1 X89.971 Y141.342 E16.08589
G1 X89.148 Y140.889 E16.12963
G1 X88.398 Y140.386 E16.17168
G1 X87.342 Y139.501 E16.23584
G1 X85.492 Y137.733 E16.35499
G1 X84.64 Y136.962 E16.4085
G1 X83.94 Y136.31 E16.45304
G1 X83.283 Y135.64 E16.49674
G1 X82.71 Y134.942 E16.53879
G1 X82.161 Y134.137 E16.58416
G1 X81.704 Y133.318 E16.62783
G1 X81.321 Y132.461 E16.67154
G1 X81.015 Y131.574 E16.71523
G1 X80.789 Y130.662 E16.75898
G1 X80.645 Y129.736 E16.80262
G1 X80.584 Y128.854 E16.84379
G1 X80.571 Y128.238 E16.87248
G1 X80.57 Y112.904 E17.58649
G1 X80.533 Y110.326 E17.70655
G1 X80.364 Y106.536 E17.8832
G1 X80.354 Y106.009 E17.90774
G1 X80.364 Y104.494 E17.97829
G1 X80.413 Y103.557 E18.02198
G1 X80.544 Y102.627 E18.06571
G1 X80.747 Y101.747 E18.10776
G1 X81.05 Y100.822 E18.15309
G1 X81.405 Y99.992 E18.19512
G1 X81.867 Y99.133 E18.24054
G1 X82.383 Y98.351 E18.28417
G1 X82.968 Y97.616 E18.32791
G1 X83.615 Y96.936 E18.37161
G1 X84.319 Y96.316 E18.41529
G0 F6000 X84.556 Y96.638
G1 F1200 X85.284 Y96.102 E18.45739
G1 X86.055 Y95.633 E18.49941
G1 X86.865 Y95.234 E18.54146
G1 X87.708 Y94.908 E18.58354
G1 X88.576 Y94.658 E18.6256
G1 X89.462 Y94.486 E18.66763
G1 X90.671 Y94.379 E18.72415
G1 X91.312 Y94.365 E18.754
G1 X94.457 Y94.365 E18.90045
G1 X97.063 Y94.328 E19.0218
G1 X99.628 Y94.219 E19.14135
G1 X102.135 Y94.041 E19.25838
G1 X104.676 Y93.79 E19.37727
G1 X107.162 Y93.472 E19.49398
G1 X109.112 Y93.168 E19.58587
G1 X109.956 Y93.052 E19.62554
G1 X111.161 Y92.96 E19.68182
G1 X112.009 Y92.946 E19.72131
G1 X128.01 Y92.945 E20.46638
G1 X128.808 Y92.955 E20.50354
G1 X129.72 Y93.008 E20.54608
G1 X130.077 Y93.045 E20.56279
G1 X130.97 Y93.178 E20.60483
G1 X131.83 Y93.384 E20.64601
G1 X132.274 Y93.511 E20.66752
G1 X133.131 Y93.798 E20.7096
G1 X134.329 Y94.35 E20.77102
G1 X134.722 Y94.563 E20.79183
G1 X135.496 Y95.028 E20.83388
G1 X136.303 Y95.622 E20.88054
G1 X136.61 Y95.872 E20.89897
G1 X137.284 Y96.472 E20.94099
G1 X138.022 Y97.272 E20.99167
G1 X138.303 Y97.611 E21.01218
G1 X138.848 Y98.331 E21.05422
G1 X139.459 Y99.336 E21.10899
G1 X139.656 Y99.707 E21.12855
G1 X140.044 Y100.523 E21.17062
G1 X140.374 Y101.422 E21.21522
G1 X140.48 Y101.758 E21.23162
G1 X140.714 Y102.631 E21.27371
G1 X140.862 Y103.466 E21.31319
G1 X140.925 Y103.934 E21.33518
G1 X141.015 Y105.139 E21.39145
G1 X141.025 Y105.794 E21.42195
G1 X141.026 Y126.641 E22.39268
G1 X141.015 Y127.481 E22.43179
G1 X140.964 Y128.361 E22.47284
G1 X140.922 Y128.776 E22.49226
G1 X140.792 Y129.67 E22.53433
G1 X140.534 Y130.714 E22.5844
G1 X140.414 Y131.109 E22.60363
G1 X140.113 Y131.961 E22.6457
G1 X139.664 Y132.925 E22.69522
G1 X139.456 Y133.317 E22.71588
G1 X138.998 Y134.095 E22.75792
G1 X138.327 Y135.011 E22.81079
G1 X138.069 Y135.325 E22.82972
G1 X137.465 Y135.997 E22.87179
G1 X136.686 Y136.712 E22.92103
G1 X136.346 Y136.993 E22.94157
G1 X135.625 Y137.537 E22.98362
G1 X134.593 Y138.16 E23.03975
G1 X133.864 Y138.54 E23.07803
G1 X131.794 Y139.57 E23.1857
G1 X130.167 Y140.443 E23.27167
G1 X129.344 Y140.874 E23.31493
G1 X128.526 Y141.257 E23.35699
G1 X127.678 Y141.566 E23.39902
G1 X126.805 Y141.799 E23.44109
G1 X125.916 Y141.954 E23.48311
G1 X124.923 Y142.033 E23.52949
G1 X124.284 Y142.048 E23.55926
G1 X95.222 Y142.047 E24.91251
G1 X94.52 Y142.037 E24.9452
G1 X93.618 Y141.984 E24.98727
G1 X92.725 Y141.852 E25.0293
G1 X91.847 Y141.641 E25.07135
G1 X90.991 Y141.353 E25.11341
G1 X90.163 Y140.991 E25.15548
G1 X89.371 Y140.557 E25.19754
G1 X88.621 Y140.054 E25.23959
G1 X87.618 Y139.212 E25.30057
G1 X85.76 Y137.436 E25.42025
G1 X84.912 Y136.669 E25.47349
G1 X84.225 Y136.03 E25.51718
G1 X83.592 Y135.386 E25.55923
G1 X83.019 Y134.688 E25.60128
G1 X82.51 Y133.942 E25.64333
G1 X82.069 Y133.154 E25.68538
G1 X81.699 Y132.33 E25.72744
G1 X81.403 Y131.477 E25.76948
G1 X81.184 Y130.6 E25.81157
G1 X81.044 Y129.708 E25.85361
G1 X80.984 Y128.845 E25.8939
G1 X80.971 Y128.238 E25.92217
G1 X80.97 Y112.904 E26.63618
G1 X80.933 Y110.308 E26.75708
G1 X80.764 Y106.528 E26.93326
G1 X80.754 Y106.011 E26.95734
G1 X80.763 Y104.514 E27.02705
G1 X80.809 Y103.612 E27.06911
G1 X80.934 Y102.717 E27.11119
G1 X81.137 Y101.837 E27.15324
G1 X81.418 Y100.979 E27.19528
G1 X81.773 Y100.149 E27.23731
G1 X82.201 Y99.353 E27.2794
G1 X82.697 Y98.599 E27.32142
G1 X83.258 Y97.891 E27.36348
G1 X83.88 Y97.236 E27.40554
G1 X84.556 Y96.638 E27.44757
G1 F2700 E22.44757
;MESH:Pot Photo Frame Landscape.stl
G0 F6000 X94.669 Y103.9
G0 X102.086 Y111.962
;TYPE:WALL-INNER
G1 F2700 E27.44757
G1 F1200 X101.858 Y112.06 E27.45913
G1 X100.748 Y112.06 E27.51081
G1 X100.487 Y111.931 E27.52437
G1 X100.362 Y111.796 E27.53294
G1 X100.263 Y111.524 E27.54641
G1 X100.261 Y110.834 E27.57854
G1 X100.356 Y110.758 E27.58421
G1 X100.261 Y110.682 E27.58987
G1 X100.263 Y109.993 E27.62196
G1 X100.308 Y109.826 E27.63001
G1 X100.263 Y109.659 E27.63806
G1 X100.26 Y109.036 E27.66707
G1 X100.311 Y108.892 E27.67419
G1 X100.26 Y108.749 E27.68126
G1 X100.26 Y108.328 E27.70086
G1 X94.747 Y108.328 E27.95757
G1 X94.52 Y108.22 E27.96927
G1 X94.352 Y108.042 E27.98067
G1 X94.168 Y107.742 E27.99706
G1 X94.089 Y107.532 E28.00751
G1 X94.089 Y107.324 E28.01719
G1 X94.254 Y106.962 E28.03572
G1 X94.455 Y106.753 E28.04922
G1 X94.692 Y106.66 E28.06107
G1 X104.128 Y106.66 E28.50045
G1 X104.452 Y106.754 E28.51616
G1 X104.652 Y106.966 E28.52973
G1 X104.812 Y107.324 E28.54799
G1 X104.812 Y107.532 E28.55768
G1 X104.732 Y107.742 E28.56814
G1 X104.469 Y108.171 E28.59157
G1 X104.209 Y108.266 E28.60446
G1 X104.238 Y108.491 E28.61503
G1 X104.164 Y108.674 E28.62422
G1 X103.924 Y109.052 E28.64507
G1 X103.785 Y109.17 E28.65356
G1 X103.652 Y109.208 E28.66
G1 X103.679 Y109.344 E28.66645
G1 X103.631 Y109.547 E28.67617
G1 X103.365 Y109.975 E28.69963
G1 X103.233 Y110.089 E28.70775
G1 X103.075 Y110.138 E28.71546
G1 X103.104 Y110.299 E28.72307
G1 X103.021 Y110.54 E28.73494
G1 X102.797 Y110.9 E28.75469
G1 X102.681 Y111.01 E28.76213
G1 X102.504 Y111.067 E28.77079
G1 X102.534 Y111.251 E28.77947
G1 X102.489 Y111.405 E28.78694
G1 X102.222 Y111.851 E28.81114
G1 X102.086 Y111.962 E28.81932
G1 F2700 E23.81932
G0 F6000 X101.754 Y112.251
G0 X99.911 Y115.642
G0 X99.628 Y117.4
G1 F2700 E28.81932
G1 F1200 X99.333 Y117.524 E28.83422
G1 X93.624 Y117.528 E29.10005
G1 X93.392 Y117.482 E29.11107
G1 X93.143 Y117.288 E29.12577
G1 X93.024 Y117.011 E29.1398
G1 X93.024 Y116.068 E29.18371
G1 X93.144 Y115.707 E29.20143
G1 X93.393 Y115.514 E29.2161
G1 X93.624 Y115.468 E29.22706
G1 X99.368 Y115.468 E29.49453
G1 X99.629 Y115.597 E29.50809
G1 X99.821 Y115.863 E29.52336
G1 X99.856 Y116.068 E29.53305
G1 X99.856 Y117.011 E29.57696
G1 X99.763 Y117.251 E29.58894
G1 X99.628 Y117.4 E29.5983
G1 F2700 E24.5983
G0 F6000 X99.628 Y117.431
G0 X106.716 Y117.607
G0 X106.916 Y127.976
G1 F2700 E29.5983
G1 F1200 X106.916 Y105.164 E30.66053
G1 X99.823 Y105.164 E30.9908
G1 X99.524 Y105.304 E31.00618
G1 X99.316 Y105.304 E31.01586
G1 X99.146 Y105.247 E31.02421
G1 X99.054 Y105.164 E31.02998
G1 X91.988 Y105.164 E31.359
G1 X91.988 Y127.976 E32.42123
G1 X106.916 Y127.976 E33.11634
G0 F6000 X107.316 Y128.376
;TYPE:WALL-OUTER
G1 F1200 X107.316 Y104.764 E34.21581
G1 X99.699 Y104.764 E34.57049
G1 X99.512 Y104.891 E34.58102
G1 X99.328 Y104.891 E34.58958
G1 X99.214 Y104.764 E34.59753
G1 X91.588 Y104.764 E34.95263
G1 X91.588 Y128.376 E36.0521
G1 X107.316 Y128.376 E36.78446
G1 F2700 E31.78446
G0 F6000 X107.047 Y128.106
G0 X106.716 Y117.431
G0 X100.037 Y117.032
G0 X99.38 Y117.086
G1 F2700 E36.78446
G1 F1200 X99.291 Y117.126 E36.78901
G1 X93.565 Y117.128 E37.05563
G1 X93.463 Y117.048 E37.06167
G1 X93.427 Y116.963 E37.06597
G1 X93.424 Y116.068 E37.10764
G1 X93.464 Y115.947 E37.11358
G1 X93.566 Y115.868 E37.11959
G1 X99.318 Y115.868 E37.38742
G1 X99.424 Y115.958 E37.3939
G1 X99.456 Y116.068 E37.39923
G1 X99.453 Y116.967 E37.44109
G1 X99.38 Y117.086 E37.44759
G1 F2700 E32.44759
G0 F6000 X99.38 Y117.431
G0 X99.656 Y117.366
G0 X99.911 Y115.642
G0 X101.754 Y112.251
G0 X101.899 Y111.601
G1 F2700 E37.44759
G1 F1200 X101.802 Y111.655 E37.45276
G1 X100.798 Y111.66 E37.49951
G1 X100.694 Y111.572 E37.50586
G1 X100.661 Y111.482 E37.51032
G1 X100.66 Y110.94 E37.53556
G1 F1103.4 X100.84 Y110.758 E37.54852
G1 X100.66 Y110.576 E37.56148
G1 F1200 X100.664 Y109.99 E37.58877
G1 F1103.4 X100.84 Y109.826 E37.60095
G1 X100.661 Y109.659 E37.61335
G1 F1200 X100.663 Y109.058 E37.64134
G1 F1108.5 X100.84 Y108.892 E37.65357
G1 X100.663 Y108.726 E37.6658
G1 F1200 X100.66 Y108.192 E37.69066
G1 F1106 X100.82 Y107.961 E37.70486
G1 X100.396 Y107.928 E37.72635
G1 F1200 X94.825 Y107.928 E37.98576
G1 X94.721 Y107.879 E37.99111
G1 X94.483 Y107.491 E38.0123
G1 X94.483 Y107.393 E38.01687
G1 X94.602 Y107.16 E38.02905
G1 X94.741 Y107.062 E38.03697
G1 X104.128 Y107.06 E38.47407
G1 X104.274 Y107.102 E38.48114
G1 X104.418 Y107.393 E38.49626
G1 X104.418 Y107.489 E38.50073
G1 X104.18 Y107.877 E38.52193
G1 X104.036 Y107.928 E38.52904
G1 F1111.1 X103.556 Y107.96 E38.55323
G1 F1088.4 X103.738 Y108.088 E38.56465
G1 F1173.6 X103.83 Y108.268 E38.57428
G1 F1200 X103.85 Y108.421 E38.58146
G1 X103.614 Y108.798 E38.60217
G1 X103.468 Y108.86 E38.60956
G1 F1111.1 X102.984 Y108.892 E38.63395
G1 F1088.4 X103.167 Y109.022 E38.64548
G1 F1173.6 X103.258 Y109.204 E38.65517
G1 F1200 X103.266 Y109.372 E38.663
G1 X103.032 Y109.751 E38.68374
G1 X102.896 Y109.792 E38.69035
G1 F1106 X102.416 Y109.826 E38.71466
G1 F1083.5 X102.6 Y109.959 E38.72637
G1 F1173.6 X102.711 Y110.275 E38.74232
G1 F1200 X102.467 Y110.679 E38.76429
G1 X102.328 Y110.724 E38.7711
G1 F1106 X101.844 Y110.758 E38.79561
G1 F1083.5 X102.026 Y110.888 E38.80714
