;FLAVOR:Marlin
;TIME:4681
;Filament used: 1.85942m
;Layer height: 0.12
;MINX:65.498
;MINY:76.836
;MINZ:0.12
;MAXX:169.064
;MAXY:157.723
;MAXZ:3
;TARGET_MACHINE.NAME:Creality Ender-3
;Generated with Cura_SteamEngine 5.7.1
M140 S65
M105
M190 S65
M104 S210
M105
M109 S210
M82 ;absolute extrusion mode
; Ender 3 Custom Start G-code
G92 E0 ; Reset Extruder
G28 ; Home all axes
G1 Z2.0 F3000 ; Move Z Axis up little to prevent scratching of Heat Bed
G1 X0.1 Y20 Z0.3 F5000.0 ; Move to start position
G1 X0.1 Y200.0 Z0.3 F1500.0 E15 ; Draw the first line
G1 X0.4 Y200.0 Z0.3 F5000.0 ; Move to side a little
G1 X0.4 Y20 Z0.3 F1500.0 E30 ; Draw the second line
G92 E0 ; Reset Extruder
G1 Z2.0 F3000 ; Move Z Axis up little to prevent scratching of Heat Bed
G1 X5 Y20 Z0.3 F5000.0 ; Move over to prevent blob squish
G92 E0
G92 E0
G1 F2700 E-5
;LAYER_COUNT:25
;LAYER:0
M107
G0 F6000 X71.129 Y85.364 Z0.12
;TYPE:SKIRT
G1 F2700 E0
G1 F1200 X71.877 Y84.795 E0.01876
G1 X72.76 Y84.241 E0.03956
G1 X73.371 Y83.903 E0.05349
G1 X73.998 Y83.574 E0.06762
G1 X75.947 Y82.584 E0.11125
G1 X78.163 Y81.379 E0.16158
G1 X80.341 Y80.112 E0.21187
G1 X82.844 Y78.557 E0.27067
G1 X83.688 Y78.071 E0.29011
G1 X84.507 Y77.69 E0.30813
G1 X85.49 Y77.335 E0.32899
G1 X86.364 Y77.105 E0.34703
G1 X87.395 Y76.929 E0.3679
G1 X88.371 Y76.853 E0.38744
G1 X89.041 Y76.836 E0.40081
G1 X150.535 Y76.836 E1.62799
G1 X151.418 Y76.849 E1.64561
G1 X152.39 Y76.908 E1.66505
G1 X153.353 Y77.054 E1.68448
G1 X154.3 Y77.285 E1.70394
G1 X155.221 Y77.598 E1.72335
G1 X156.113 Y77.992 E1.74281
G1 X156.966 Y78.463 E1.76225
G1 X157.772 Y79.007 E1.78166
G1 X158.527 Y79.619 E1.80105
G1 X159.149 Y80.217 E1.81827
G1 X161.326 Y82.432 E1.88025
G1 X163.148 Y84.177 E1.9306
G1 X165.447 Y86.253 E1.99241
G1 X166.138 Y86.939 E2.01184
G1 X166.767 Y87.684 E2.0313
G1 X167.326 Y88.481 E2.05073
G1 X167.812 Y89.324 E2.07015
G1 X168.224 Y90.207 E2.08959
G1 X168.533 Y91.055 E2.1076
G1 X168.802 Y92.065 E2.12846
G1 X168.967 Y93.028 E2.14796
G1 X169.048 Y94.063 E2.16868
G1 X169.063 Y94.72 E2.18179
G1 X169.064 Y143.763 E3.1605
G1 X169.051 Y144.666 E3.17852
G1 X168.993 Y145.639 E3.19797
G1 X168.847 Y146.602 E3.21741
G1 X168.616 Y147.549 E3.23686
G1 X168.303 Y148.471 E3.25629
G1 X167.911 Y149.362 E3.27572
G1 X167.459 Y150.184 E3.29444
G1 X166.897 Y151.022 E3.31457
G1 X166.307 Y151.752 E3.3333
G1 X165.604 Y152.478 E3.35347
G1 X164.868 Y153.114 E3.37288
G1 X164.078 Y153.684 E3.39232
G1 X163.302 Y154.147 E3.41036
G1 X162.362 Y154.6 E3.43118
G1 X161.449 Y154.942 E3.45064
G1 X160.511 Y155.201 E3.47006
G1 X159.545 Y155.378 E3.48965
G1 X158.414 Y155.474 E3.51231
G1 X157.741 Y155.489 E3.52574
G1 X137.812 Y155.49 E3.92344
G1 X135.227 Y155.527 E3.97504
G1 X132.659 Y155.636 E4.02633
G1 X130.185 Y155.811 E4.07582
G1 X127.713 Y156.056 E4.1254
G1 X125.15 Y156.384 E4.17696
G1 X122.688 Y156.771 E4.2267
G1 X120.411 Y157.19 E4.2729
G1 X119.179 Y157.435 E4.29797
G1 X118.553 Y157.538 E4.31063
G1 X117.831 Y157.625 E4.32514
G1 X117.245 Y157.679 E4.33688
G1 X116.287 Y157.721 E4.35602
G1 X80.865 Y157.723 E5.0629
G1 X79.89 Y157.709 E5.08236
G1 X78.784 Y157.634 E5.10449
G1 X78.153 Y157.559 E5.11717
G1 X77.262 Y157.413 E5.13519
G1 X76.358 Y157.188 E5.15378
G1 X75.381 Y156.886 E5.17418
G1 X74.469 Y156.543 E5.19363
G1 X73.572 Y156.111 E5.2135
G1 X72.899 Y155.747 E5.22877
G1 X72.061 Y155.242 E5.24829
G1 X71.165 Y154.581 E5.27051
G1 X70.577 Y154.096 E5.28572
G1 X69.848 Y153.438 E5.30532
G1 X69.099 Y152.617 E5.3275
G1 X68.592 Y151.996 E5.34349
G1 X68.012 Y151.213 E5.36294
G1 X67.514 Y150.401 E5.38195
G1 X67.17 Y149.77 E5.39629
G1 X66.982 Y149.401 E5.40456
G1 X66.581 Y148.515 E5.42396
G1 X66.265 Y147.622 E5.44287
G1 X66.043 Y146.891 E5.45811
G1 X65.819 Y146.016 E5.47614
G1 X65.637 Y144.862 E5.49945
G1 X65.565 Y144.162 E5.51349
G1 X65.513 Y143.4 E5.52874
G1 X65.5 Y142.805 E5.54061
G1 X65.498 Y97.617 E6.44239
G1 X65.506 Y96.955 E6.4556
G1 X65.542 Y96.224 E6.47021
G1 X65.623 Y95.267 E6.48937
G1 X65.744 Y94.336 E6.50811
G1 X65.96 Y93.362 E6.52802
G1 X66.158 Y92.664 E6.5425
G1 X66.308 Y92.188 E6.55246
G1 X66.631 Y91.306 E6.5712
G1 X67.05 Y90.414 E6.59087
G1 X67.41 Y89.727 E6.60634
G1 X67.865 Y88.947 E6.62437
G1 X68.379 Y88.211 E6.64228
G1 X68.813 Y87.654 E6.65637
G1 X69.121 Y87.281 E6.66602
G1 X69.777 Y86.558 E6.68551
G1 X70.536 Y85.859 E6.7061
G1 X71.129 Y85.364 E6.72151
G0 F6000 X71.372 Y85.682
G1 F1200 X72.09 Y85.134 E6.73954
G1 X72.954 Y84.591 E6.7599
G1 X73.557 Y84.257 E6.77366
G1 X74.179 Y83.931 E6.78767
G1 X76.128 Y82.941 E6.8313
G1 X78.364 Y81.725 E6.88209
G1 X80.542 Y80.458 E6.93237
G1 X83.044 Y78.903 E6.99116
G1 X83.857 Y78.434 E7.00989
G1 X84.676 Y78.053 E7.02792
G1 X85.592 Y77.722 E7.04736
G1 X86.466 Y77.492 E7.06539
G1 X87.426 Y77.328 E7.08483
G1 X88.381 Y77.253 E7.10394
G1 X89.051 Y77.236 E7.11732
G1 X150.529 Y77.236 E8.34418
G1 X151.394 Y77.248 E8.36144
G1 X152.331 Y77.304 E8.38017
G1 X153.259 Y77.443 E8.3989
G1 X154.172 Y77.664 E8.41765
G1 X155.06 Y77.964 E8.43635
G1 X155.92 Y78.342 E8.4551
G1 X156.743 Y78.795 E8.47384
G1 X157.521 Y79.318 E8.49255
G1 X158.25 Y79.907 E8.51126
G1 X158.864 Y80.497 E8.52825
G1 X161.049 Y82.721 E8.59047
G1 X162.871 Y84.466 E8.64081
G1 X165.166 Y86.537 E8.7025
G1 X165.833 Y87.197 E8.72123
G1 X166.44 Y87.914 E8.73998
G1 X166.98 Y88.681 E8.7587
G1 X167.45 Y89.493 E8.77742
G1 X167.848 Y90.344 E8.79617
G1 X168.157 Y91.192 E8.81418
G1 X168.408 Y92.133 E8.83361
G1 X168.568 Y93.059 E8.85237
G1 X168.648 Y94.072 E8.87264
G1 X168.663 Y94.72 E8.88558
G1 X168.664 Y143.758 E9.86419
G1 X168.652 Y144.643 E9.88185
G1 X168.597 Y145.58 E9.90058
G1 X168.458 Y146.508 E9.91931
G1 X168.237 Y147.421 E9.93805
G1 X167.937 Y148.31 E9.95678
G1 X167.56 Y149.169 E9.9755
G1 X167.108 Y149.991 E9.99422
G1 X166.585 Y150.771 E10.01296
G1 X166.019 Y151.474 E10.03097
G1 X165.342 Y152.176 E10.05043
G1 X164.634 Y152.79 E10.06913
G1 X163.873 Y153.34 E10.08787
G1 X163.097 Y153.803 E10.1059
G1 X162.221 Y154.226 E10.12532
G1 X161.342 Y154.557 E10.14406
G1 X160.438 Y154.808 E10.16278
G1 X159.511 Y154.979 E10.18159
G1 X158.38 Y155.075 E10.20425
G1 X157.741 Y155.089 E10.217
G1 X137.806 Y155.09 E10.61483
G1 X135.21 Y155.127 E10.66664
G1 X132.642 Y155.236 E10.71793
G1 X130.154 Y155.412 E10.7677
G1 X127.662 Y155.659 E10.81768
G1 X125.099 Y155.987 E10.86924
G1 X122.626 Y156.376 E10.9192
G1 X120.333 Y156.798 E10.96573
G1 X119.114 Y157.04 E10.99053
G1 X118.505 Y157.141 E11.00285
G1 X117.795 Y157.227 E11.01712
G1 X117.227 Y157.279 E11.0285
G1 X116.287 Y157.321 E11.04728
G1 X80.87 Y157.323 E11.75407
G1 X79.917 Y157.31 E11.77309
G1 X78.831 Y157.237 E11.79481
G1 X78.218 Y157.164 E11.80713
G1 X77.327 Y157.018 E11.82515
G1 X76.476 Y156.806 E11.84265
G1 X75.521 Y156.511 E11.86259
G1 X74.642 Y156.182 E11.88132
G1 X73.762 Y155.759 E11.90081
G1 X73.105 Y155.404 E11.91571
G1 X72.298 Y154.92 E11.93449
G1 X71.419 Y154.272 E11.95628
G1 X70.845 Y153.799 E11.97113
G1 X70.144 Y153.168 E11.98995
G1 X69.395 Y152.347 E12.01213
G1 X68.913 Y151.757 E12.02733
G1 X68.353 Y151.004 E12.04606
G1 X67.865 Y150.21 E12.06465
G1 X67.526 Y149.588 E12.07879
G1 X67.346 Y149.236 E12.08668
G1 X66.958 Y148.382 E12.1054
G1 X66.648 Y147.506 E12.12394
G1 X66.431 Y146.792 E12.13884
G1 X66.207 Y145.917 E12.15686
G1 X66.035 Y144.821 E12.179
G1 X65.964 Y144.135 E12.19276
G1 X65.913 Y143.391 E12.20764
G1 X65.9 Y142.805 E12.21934
G1 X65.898 Y97.622 E13.12102
G1 X65.906 Y96.975 E13.13393
G1 X65.941 Y96.258 E13.14826
G1 X66.02 Y95.319 E13.16706
G1 X66.141 Y94.388 E13.1858
G1 X66.345 Y93.471 E13.20454
G1 X66.54 Y92.784 E13.21879
G1 X66.684 Y92.326 E13.22838
G1 X67.007 Y91.444 E13.24712
G1 X67.404 Y90.6 E13.26573
G1 X67.756 Y89.929 E13.28085
G1 X68.211 Y89.149 E13.29887
G1 X68.694 Y88.457 E13.31572
G1 X69.122 Y87.908 E13.32961
G1 X69.418 Y87.549 E13.33889
G1 X70.048 Y86.852 E13.35764
G1 X70.792 Y86.166 E13.37784
G1 X71.372 Y85.682 E13.39291
G0 F6000 X71.615 Y86
G1 F1200 X72.333 Y85.452 E13.41094
G1 X73.148 Y84.941 E13.43013
G1 X73.743 Y84.611 E13.44371
G1 X74.36 Y84.288 E13.45761
G1 X76.309 Y83.298 E13.50123
G1 X78.565 Y82.071 E13.55248
G1 X80.743 Y80.804 E13.60277
G1 X83.244 Y79.249 E13.66154
G1 X84.026 Y78.797 E13.67956
G1 X84.845 Y78.416 E13.69759
G1 X85.694 Y78.109 E13.71561
G1 X86.568 Y77.879 E13.73364
G1 X87.458 Y77.727 E13.75166
G1 X88.391 Y77.653 E13.77034
G1 X89.061 Y77.636 E13.78371
G1 X150.524 Y77.636 E15.01027
G1 X151.371 Y77.647 E15.02718
G1 X152.273 Y77.7 E15.04521
G1 X153.166 Y77.832 E15.06322
G1 X154.044 Y78.043 E15.08124
G1 X154.9 Y78.331 E15.09927
G1 X155.728 Y78.693 E15.1173
G1 X156.52 Y79.127 E15.13532
G1 X157.27 Y79.63 E15.15334
G1 X157.973 Y80.196 E15.17135
G1 X158.579 Y80.777 E15.18811
G1 X160.772 Y83.01 E15.25057
G1 X162.594 Y84.755 E15.30091
G1 X164.885 Y86.822 E15.36249
G1 X165.528 Y87.456 E15.38051
G1 X166.113 Y88.145 E15.39855
G1 X166.634 Y88.882 E15.41656
G1 X167.088 Y89.663 E15.43459
G1 X167.472 Y90.481 E15.45262
G1 X167.781 Y91.329 E15.47063
G1 X168.014 Y92.202 E15.48866
G1 X168.169 Y93.091 E15.50667
G1 X168.248 Y94.081 E15.52649
G1 X168.263 Y94.72 E15.53925
G1 X168.264 Y143.753 E16.51775
G1 X168.253 Y144.62 E16.53506
G1 X168.201 Y145.522 E16.55309
G1 X168.069 Y146.415 E16.5711
G1 X167.858 Y147.294 E16.58914
G1 X167.571 Y148.15 E16.60716
G1 X167.209 Y148.977 E16.62517
G1 X166.775 Y149.769 E16.6432
G1 X166.273 Y150.52 E16.66122
G1 X165.707 Y151.223 E16.67923
G1 X165.08 Y151.874 E16.69727
G1 X164.399 Y152.466 E16.71528
G1 X163.668 Y152.996 E16.7333
G1 X162.892 Y153.459 E16.75133
G1 X162.079 Y153.852 E16.76935
G1 X161.234 Y154.172 E16.78738
G1 X160.365 Y154.415 E16.80539
G1 X159.477 Y154.58 E16.82341
G1 X158.346 Y154.676 E16.84606
G1 X157.741 Y154.689 E16.85814
G1 X137.8 Y154.69 E17.25608
G1 X135.193 Y154.727 E17.30812
G1 X132.625 Y154.836 E17.35941
G1 X130.123 Y155.013 E17.40946
G1 X127.611 Y155.262 E17.45984
G1 X125.048 Y155.59 E17.5114
G1 X122.564 Y155.981 E17.56158
G1 X120.255 Y156.406 E17.60844
G1 X119.048 Y156.645 E17.63299
G1 X118.457 Y156.744 E17.64495
G1 X117.759 Y156.829 E17.65898
G1 X117.209 Y156.879 E17.67
G1 X116.287 Y156.921 E17.68842
G1 X80.875 Y156.923 E18.39511
G1 X79.944 Y156.911 E18.41369
G1 X78.878 Y156.84 E18.43501
G1 X78.283 Y156.769 E18.44697
G1 X77.392 Y156.623 E18.46498
G1 X76.594 Y156.424 E18.4814
G1 X75.661 Y156.136 E18.50088
G1 X74.815 Y155.821 E18.5189
G1 X73.952 Y155.407 E18.538
G1 X73.31 Y155.061 E18.55255
G1 X72.535 Y154.598 E18.57057
G1 X71.673 Y153.963 E18.59193
G1 X71.112 Y153.502 E18.60642
G1 X70.44 Y152.898 E18.62446
G1 X69.691 Y152.077 E18.64663
G1 X69.234 Y151.518 E18.66104
G1 X68.694 Y150.794 E18.67907
G1 X68.216 Y150.018 E18.69726
G1 X67.882 Y149.406 E18.71117
G1 X67.71 Y149.07 E18.7187
G1 X67.335 Y148.249 E18.73671
G1 X67.031 Y147.39 E18.7549
G1 X66.819 Y146.693 E18.76944
G1 X66.595 Y145.818 E18.78746
G1 X66.433 Y144.78 E18.80843
G1 X66.363 Y144.107 E18.82193
G1 X66.313 Y143.382 E18.83643
G1 X66.3 Y142.805 E18.84795
G1 X66.298 Y97.627 E19.74953
G1 X66.306 Y96.994 E19.76216
G1 X66.34 Y96.291 E19.7762
G1 X66.417 Y95.37 E19.79465
G1 X66.532 Y94.474 E19.81267
G1 X66.73 Y93.58 E19.83095
G1 X66.921 Y92.904 E19.84497
G1 X67.06 Y92.463 E19.85419
G1 X67.369 Y91.614 E19.87222
G1 X67.758 Y90.786 E19.89048
G1 X68.102 Y90.131 E19.90524
G1 X68.557 Y89.351 E19.92326
G1 X69.01 Y88.703 E19.93904
G1 X69.431 Y88.162 E19.95272
G1 X69.715 Y87.817 E19.96164
G1 X70.319 Y87.146 E19.97966
G1 X71.049 Y86.473 E19.99947
G1 X71.615 Y86 E20.01419
G1 F2700 E15.01419
;MESH:Pot Photo Frame v2.obj
G0 F6000 X81.165 Y97.89
G0 X81.345 Y98.04
;TYPE:WALL-INNER
G1 F2700 E20.01419
G1 F888.9 X81.279 Y98.04 E20.01597
G1 X81.245 Y98.098 E20.01778
G1 X81.279 Y98.156 E20.01959
G1 X81.345 Y98.156 E20.02137
G1 X81.379 Y98.098 E20.02318
G1 F2700 E15.02318
G0 F6000 X81.683 Y98.05
G0 X115.256 Y98.04
G1 F2700 E20.02318
G1 F888.9 X115.19 Y98.04 E20.02496
G1 X115.156 Y98.098 E20.02677
G1 X115.19 Y98.156 E20.02858
G1 X115.256 Y98.156 E20.03036
G1 X115.29 Y98.098 E20.03217
G1 F2700 E15.03217
G0 F6000 X115.269 Y141.647
G1 F2700 E20.03217
G1 F904 X115.195 Y141.879 E20.03862
G1 F909.1 X114.967 Y141.952 E20.04493
G1 F2700 E15.04493
G0 F6000 X81.339 Y141.879
G1 F2700 E20.04493
G1 F914.3 X81.257 Y141.618 E20.05209
G1 F2700 E15.05209
G0 F6000 X81.847 Y141.864
G0 X114.555 Y141.952
G0 X114.555 Y141.735
;TYPE:WALL-OUTER
G1 F2700 E20.05209
G1 F848.1 X81.996 Y141.735 E20.97149
G1 F993.8 X81.686 Y141.518 E20.98061
G1 F991.7 X81.484 Y141.216 E20.98938
G1 F845.1 X81.484 Y98.684 E22.19464
G1 F898.9 X81.71 Y98.342 E22.20556
G1 F937.5 X81.951 Y98.194 E22.21278
G1 F923.1 X114.54 Y98.193 E23.05824
G1 F983.6 X114.833 Y98.359 E23.06644
G1 F937.5 X115.051 Y98.684 E23.07643
G1 F848.1 X115.051 Y141.235 E24.27798
G1 F907.4 X114.854 Y141.519 E24.2871
G1 F909.1 X114.555 Y141.735 E24.29682
G0 F6000 X114.555 Y141.952
G0 X115.277 Y142.073
G0 X115.368 Y142.359
G1 F1200 X115.608 Y142.184 E24.30275
G1 X115.674 Y142.05 E24.30573
G1 X115.7 Y141.647 E24.31379
G1 F993.8 X115.617 Y141.254 E24.32347
G1 F848.1 X115.617 Y98.684 E25.52555
G1 F993.8 X115.7 Y98.282 E25.53544
G1 F1200 X115.675 Y97.951 E25.54207
G1 X115.497 Y97.709 E25.54806
G1 F1197 X115.311 Y97.616 E25.55222
G1 F1185.2 X114.912 Y97.619 E25.56028
G1 F1039 X114.54 Y97.675 E25.56896
G1 F923.1 X81.906 Y97.677 E26.41558
G1 F1002.1 X81.624 Y97.633 E26.4224
G1 F1126.8 X81.23 Y97.61 E26.43079
G1 F1176.5 X81.036 Y97.708 E26.43521
G1 F1200 X80.861 Y97.951 E26.44119
G1 X80.833 Y98.282 E26.44781
G1 F991.7 X80.916 Y98.684 E26.45773
G1 F845.1 X80.916 Y141.216 E27.66298
G1 F991.7 X80.833 Y141.618 E27.67289
G1 F1200 X80.832 Y141.994 E27.6804
G1 X80.928 Y142.184 E27.68465
G1 X81.032 Y142.288 E27.68758
G1 X81.218 Y142.384 E27.69176
G1 X81.592 Y142.383 E27.69922
G1 F993.8 X81.996 Y142.301 E27.70916
G1 F848.1 X114.574 Y142.3 E28.62909
G1 F993.8 X114.967 Y142.382 E28.63876
G1 F1200 X115.368 Y142.359 E28.64678
G1 F2700 E23.64678
G0 F6000 X115.277 Y142.073
G0 X115.371 Y143.917
G0 X116.652 Y144.442
;TYPE:WALL-INNER
G1 F2700 E28.64678
G1 F1200 X116.249 Y144.512 E28.65494
G1 X80.284 Y144.512 E29.37266
G1 X79.829 Y144.444 E29.38184
G1 X79.349 Y144.158 E29.39299
G1 X79.042 Y143.866 E29.40145
G1 X78.78 Y143.379 E29.41248
G1 X78.705 Y142.934 E29.42149
G1 X78.705 Y97.066 E30.33683
G1 X78.771 Y96.689 E30.34447
G1 X79.003 Y96.172 E30.35578
G1 X79.404 Y95.791 E30.36682
G1 X79.843 Y95.558 E30.37674
G1 X80.291 Y95.488 E30.38579
G1 X116.25 Y95.488 E31.10339
G1 X116.679 Y95.553 E31.11205
G1 X117.155 Y95.805 E31.12279
G1 X117.47 Y96.118 E31.13166
G1 X117.747 Y96.595 E31.14266
G1 X117.827 Y97.069 E31.15226
G1 X117.832 Y142.926 E32.06738
G1 X117.759 Y143.334 E32.07565
G1 X117.537 Y143.808 E32.0861
G1 X117.13 Y144.216 E32.0976
G1 X116.652 Y144.442 E32.10815
G0 F6000 X116.577 Y144.052
G1 F1200 X116.21 Y144.114 E32.11558
G1 X80.324 Y144.114 E32.83172
G1 X79.951 Y144.05 E32.83927
G1 X79.603 Y143.849 E32.84729
G1 X79.357 Y143.612 E32.85411
G1 X79.162 Y143.242 E32.86246
G1 X79.103 Y142.893 E32.86952
G1 X79.1 Y97.11 E33.78317
G1 X79.161 Y96.782 E33.78983
G1 X79.328 Y96.426 E33.79768
G1 X79.625 Y96.129 E33.80606
G1 X79.958 Y95.949 E33.81361
G1 X80.328 Y95.886 E33.8211
G1 X116.209 Y95.886 E34.53715
G1 X116.568 Y95.947 E34.54441
G1 X116.917 Y96.129 E34.55227
G1 X117.169 Y96.388 E34.55948
G1 X117.37 Y96.744 E34.56764
G1 X117.429 Y97.108 E34.575
G1 X117.426 Y142.922 E35.48926
G1 X117.37 Y143.255 E35.496
G1 X117.192 Y143.581 E35.50342
G1 X116.936 Y143.847 E35.51078
G1 X116.577 Y144.052 E35.51903
G0 F6000 X116.711 Y144.316
G0 X116.267 Y144.692
G0 X116.265 Y145.303
G0 X116.32 Y145.484
G1 F1200 X116.828 Y145.431 E35.52923
G1 X117.289 Y145.291 E35.53884
G1 X117.716 Y145.064 E35.54849
G1 X118.081 Y144.762 E35.55794
G1 X118.38 Y144.401 E35.5673
G1 X118.606 Y143.973 E35.57696
G1 X118.746 Y143.509 E35.58663
G1 X118.8 Y143.004 E35.59676
G1 X118.8 Y96.998 E36.51486
G1 X118.745 Y96.451 E36.52584
G1 X118.607 Y95.974 E36.53574
G1 X118.381 Y95.541 E36.54549
G1 X118.071 Y95.153 E36.5554
G1 X117.704 Y94.842 E36.565
G1 X117.277 Y94.611 E36.57469
G1 X116.835 Y94.473 E36.58393
G1 X116.321 Y94.42 E36.59424
G1 X80.188 Y94.422 E37.31532
G1 X79.701 Y94.472 E37.32509
G1 X79.261 Y94.609 E37.33428
G1 X78.834 Y94.845 E37.34402
