;FLAVOR:Marlin
;TIME:303
;Filament used: 0.255408m
;Layer height: 0.28
;MINX:86.628
;MINY:92.145
;MINZ:0.28
;MAXX:148.5
;MAXY:142.848
;MAXZ:1.4
;TARGET_MACHINE.NAME:Creality Ender-3
;Generated with Cura_SteamEngine 5.7.1
M140 S65
M105
M190 S65
M104 S210
M105
M109 S210
M82 ;absolute extrusion mode
; Ender 3 Custom Start G-code
G92 E0 ; Reset Extruder
G28 ; Home all axes
G1 Z2.0 F3000 ; Move Z Axis up little to prevent scratching of Heat Bed
G1 X0.1 Y20 Z0.3 F5000.0 ; Move to start position
G1 X0.1 Y200.0 Z0.3 F1500.0 E15 ; Draw the first line
G1 X0.4 Y200.0 Z0.3 F5000.0 ; Move to side a little
G1 X0.4 Y20 Z0.3 F1500.0 E30 ; Draw the second line
G92 E0 ; Reset Extruder
G1 Z2.0 F3000 ; Move Z Axis up little to prevent scratching of Heat Bed
G1 X5 Y20 Z0.3 F5000.0 ; Move over to prevent blob squish
G92 E0
G92 E0
G1 F2700 E-5
;LAYER_COUNT:5
;LAYER:0
M107
G0 F6000 X89.999 Y96.66 Z0.28
;TYPE:SKIRT
G1 F2700 E0
G1 F1200 X90.756 Y95.994 E0.04695
G1 X91.543 Y95.418 E0.09236
G1 X92.376 Y94.915 E0.13767
G1 X93.251 Y94.488 E0.18301
G1 X94.161 Y94.14 E0.22838
G1 X95.098 Y93.872 E0.27376
G1 X95.984 Y93.7 E0.31578
G1 X97.327 Y93.579 E0.37857
G1 X97.968 Y93.565 E0.40843
G1 X101.119 Y93.565 E0.55515
G1 X103.703 Y93.528 E0.67548
G1 X106.268 Y93.419 E0.79503
G1 X108.747 Y93.243 E0.91075
G1 X111.248 Y92.996 E1.02777
G1 X113.734 Y92.678 E1.14448
G1 X115.678 Y92.376 E1.23608
G1 X116.57 Y92.254 E1.27801
G1 X117.821 Y92.16 E1.33642
G1 X118.683 Y92.146 E1.37656
G1 X134.694 Y92.145 E2.1221
G1 X135.528 Y92.157 E2.16094
G1 X136.476 Y92.212 E2.20516
G1 X136.87 Y92.253 E2.2236
G1 X137.797 Y92.393 E2.26726
G1 X138.724 Y92.614 E2.31163
G1 X139.186 Y92.747 E2.33402
G1 X140.1 Y93.056 E2.37895
G1 X141.385 Y93.647 E2.44481
G1 X141.809 Y93.878 E2.46729
G1 X142.644 Y94.384 E2.51275
G1 X143.483 Y95.002 E2.56127
G1 X143.816 Y95.274 E2.5813
G1 X144.49 Y95.874 E2.62331
G1 X145.312 Y96.762 E2.67966
G1 X145.615 Y97.129 E2.70182
G1 X146.206 Y97.915 E2.74761
G1 X146.829 Y98.941 E2.8035
G1 X147.043 Y99.344 E2.82475
G1 X147.462 Y100.227 E2.87026
G1 X147.817 Y101.196 E2.91831
G1 X147.949 Y101.625 E2.93921
G1 X148.192 Y102.564 E2.98438
G1 X148.333 Y103.38 E3.02294
G1 X148.397 Y103.858 E3.04539
G1 X148.489 Y105.113 E3.10399
G1 X148.499 Y105.798 E3.13589
G1 X148.5 Y126.652 E4.10694
G1 X148.487 Y127.53 E4.14783
G1 X148.43 Y128.491 E4.19265
G1 X148.381 Y128.953 E4.21429
G1 X148.246 Y129.846 E4.25634
G1 X147.968 Y130.964 E4.30999
G1 X147.838 Y131.389 E4.33068
G1 X147.507 Y132.313 E4.37638
G1 X147.006 Y133.378 E4.43119
G1 X146.778 Y133.797 E4.4534
G1 X146.272 Y134.636 E4.49902
G1 X145.627 Y135.51 E4.5496
G1 X145.336 Y135.862 E4.57087
G1 X144.678 Y136.589 E4.61653
G1 X143.87 Y137.329 E4.66754
G1 X143.516 Y137.621 E4.68891
G1 X142.746 Y138.199 E4.73374
G1 X141.637 Y138.87 E4.7941
G1 X140.894 Y139.256 E4.83309
G1 X138.824 Y140.286 E4.94075
G1 X137.212 Y141.151 E5.02593
G1 X136.357 Y141.598 E5.07086
G1 X135.474 Y142.009 E5.11621
G1 X134.626 Y142.318 E5.15824
G1 X133.616 Y142.587 E5.20691
G1 X132.653 Y142.752 E5.2524
G1 X131.615 Y142.833 E5.30088
G1 X130.958 Y142.848 E5.33148
G1 X101.884 Y142.847 E6.68529
G1 X101.147 Y142.835 E6.71961
G1 X100.175 Y142.776 E6.76496
G1 X99.212 Y142.63 E6.81031
G1 X98.265 Y142.399 E6.8557
G1 X97.344 Y142.086 E6.90099
G1 X96.452 Y141.692 E6.9464
G1 X95.599 Y141.221 E6.99177
G1 X94.815 Y140.693 E7.03579
G1 X93.759 Y139.808 E7.09994
G1 X91.898 Y138.03 E7.21979
G1 X91.041 Y137.255 E7.27359
G1 X90.328 Y136.59 E7.31899
G1 X89.648 Y135.894 E7.3643
G1 X89.075 Y135.196 E7.40635
G1 X88.486 Y134.332 E7.45504
G1 X88.013 Y133.481 E7.50038
G1 X87.617 Y132.591 E7.54574
G1 X87.301 Y131.67 E7.59108
G1 X87.068 Y130.723 E7.63649
G1 X86.92 Y129.764 E7.68167
G1 X86.858 Y128.862 E7.72377
G1 X86.845 Y128.238 E7.75283
G1 X86.844 Y112.904 E8.46685
G1 X86.807 Y110.344 E8.58607
G1 X86.638 Y106.544 E8.76319
G1 X86.628 Y106.006 E8.78824
G1 X86.639 Y104.473 E8.85963
G1 X86.691 Y103.501 E8.90495
G1 X86.828 Y102.537 E8.95029
G1 X87.041 Y101.622 E8.99404
G1 X87.356 Y100.665 E9.04095
G1 X87.711 Y99.835 E9.08298
G1 X88.207 Y98.913 E9.13173
G1 X88.744 Y98.102 E9.17703
G1 X89.352 Y97.34 E9.22242
G1 X89.999 Y96.66 E9.26613
G0 F6000 X90.289 Y96.936
G1 F1200 X90.993 Y96.316 E9.30981
G1 X91.75 Y95.76 E9.35354
G1 X92.552 Y95.274 E9.39721
G1 X93.395 Y94.861 E9.44092
G1 X94.271 Y94.524 E9.48462
G1 X95.174 Y94.265 E9.52837
G1 X96.06 Y94.093 E9.57039
G1 X97.336 Y93.979 E9.63005
G1 X97.977 Y93.965 E9.6599
G1 X101.125 Y93.965 E9.80648
G1 X103.72 Y93.928 E9.92733
G1 X106.285 Y93.819 E10.04688
G1 X108.778 Y93.642 E10.16325
G1 X111.299 Y93.393 E10.28121
G1 X113.785 Y93.075 E10.39791
G1 X115.732 Y92.772 E10.48967
G1 X116.6 Y92.653 E10.53046
G1 X117.828 Y92.56 E10.58781
G1 X118.683 Y92.546 E10.62762
G1 X134.689 Y92.545 E11.37293
G1 X135.505 Y92.556 E11.41093
G1 X136.435 Y92.61 E11.45431
G1 X136.81 Y92.649 E11.47186
G1 X137.737 Y92.789 E11.51552
G1 X138.614 Y92.999 E11.55751
G1 X139.058 Y93.126 E11.57901
G1 X139.972 Y93.435 E11.62394
G1 X141.194 Y93.998 E11.68659
G1 X141.602 Y94.22 E11.70822
G1 X142.407 Y94.706 E11.752
G1 X143.23 Y95.312 E11.79959
G1 X143.55 Y95.573 E11.81882
G1 X144.224 Y96.173 E11.86084
G1 X145.004 Y97.017 E11.91435
G1 X145.296 Y97.37 E11.93568
G1 X145.864 Y98.123 E11.9796
G1 X146.476 Y99.129 E12.03443
G1 X146.682 Y99.516 E12.05485
G1 X147.086 Y100.365 E12.09863
G1 X147.441 Y101.334 E12.14668
G1 X147.562 Y101.726 E12.16579
G1 X147.798 Y102.632 E12.20938
G1 X147.937 Y103.433 E12.24724
G1 X147.998 Y103.887 E12.26857
G1 X148.089 Y105.119 E12.32609
G1 X148.099 Y105.798 E12.35771
G1 X148.1 Y126.646 E13.32848
G1 X148.088 Y127.506 E13.36853
G1 X148.032 Y128.449 E13.41252
G1 X147.985 Y128.893 E13.43331
G1 X147.85 Y129.786 E13.47536
G1 X147.586 Y130.847 E13.52627
G1 X147.461 Y131.255 E13.54614
G1 X147.145 Y132.143 E13.59003
G1 X146.654 Y133.187 E13.64375
G1 X146.435 Y133.591 E13.66515
G1 X145.95 Y134.398 E13.70899
G1 X145.305 Y135.272 E13.75957
G1 X145.039 Y135.594 E13.77902
G1 X144.408 Y136.294 E13.8229
G1 X143.615 Y137.02 E13.87297
G1 X143.261 Y137.312 E13.89433
G1 X142.506 Y137.879 E13.9383
G1 X141.452 Y138.515 E13.99562
G1 X140.716 Y138.898 E14.03425
G1 X138.646 Y139.928 E14.14192
G1 X137.027 Y140.797 E14.22748
G1 X136.188 Y141.236 E14.27157
G1 X135.337 Y141.633 E14.31529
G1 X134.489 Y141.942 E14.35732
G1 X133.548 Y142.193 E14.40267
G1 X132.622 Y142.353 E14.44643
G1 X131.606 Y142.433 E14.49388
G1 X130.958 Y142.448 E14.52406
G1 X101.89 Y142.447 E15.87759
G1 X101.171 Y142.436 E15.91108
G1 X100.234 Y142.38 E15.95478
G1 X99.306 Y142.241 E15.99848
G1 X98.393 Y142.02 E16.04222
G1 X97.505 Y141.72 E16.08586
G1 X96.645 Y141.342 E16.12961
G1 X95.822 Y140.889 E16.17335
G1 X95.072 Y140.386 E16.2154
G1 X94.016 Y139.501 E16.27956
G1 X92.166 Y137.733 E16.39871
G1 X91.314 Y136.962 E16.45222
G1 X90.614 Y136.31 E16.49676
G1 X89.957 Y135.64 E16.54046
G1 X89.384 Y134.942 E16.58251
G1 X88.835 Y134.137 E16.62788
G1 X88.378 Y133.318 E16.67155
G1 X87.995 Y132.461 E16.71526
G1 X87.689 Y131.574 E16.75895
G1 X87.463 Y130.662 E16.8027
G1 X87.319 Y129.736 E16.84634
G1 X87.258 Y128.854 E16.88751
G1 X87.245 Y128.238 E16.9162
G1 X87.244 Y112.904 E17.63021
G1 X87.207 Y110.326 E17.75027
G1 X87.038 Y106.536 E17.92692
G1 X87.028 Y106.009 E17.95146
G1 X87.038 Y104.494 E18.02201
G1 X87.087 Y103.557 E18.0657
G1 X87.218 Y102.627 E18.10943
G1 X87.421 Y101.747 E18.15149
G1 X87.724 Y100.822 E18.19681
G1 X88.079 Y99.992 E18.23884
G1 X88.541 Y99.133 E18.28426
G1 X89.057 Y98.351 E18.32789
G1 X89.642 Y97.616 E18.37163
G1 X90.289 Y96.936 E18.41533
G0 F6000 X90.554 Y97.236
G1 F1200 X91.23 Y96.638 E18.45736
G1 X91.958 Y96.102 E18.49946
G1 X92.729 Y95.633 E18.54148
G1 X93.539 Y95.234 E18.58352
G1 X94.382 Y94.908 E18.62561
G1 X95.25 Y94.658 E18.66767
G1 X96.136 Y94.486 E18.7097
G1 X97.345 Y94.379 E18.76621
G1 X97.986 Y94.365 E18.79607
G1 X101.131 Y94.365 E18.94251
G1 X103.737 Y94.328 E19.06387
G1 X106.302 Y94.219 E19.18341
G1 X108.809 Y94.041 E19.30044
G1 X111.35 Y93.79 E19.41934
G1 X113.836 Y93.472 E19.53604
G1 X115.786 Y93.168 E19.62794
G1 X116.63 Y93.052 E19.66761
G1 X117.835 Y92.96 E19.72388
G1 X118.683 Y92.946 E19.76337
G1 X134.684 Y92.945 E20.50845
G1 X135.482 Y92.955 E20.54561
G1 X136.394 Y93.008 E20.58815
G1 X136.751 Y93.045 E20.60486
G1 X137.644 Y93.178 E20.6469
G1 X138.504 Y93.384 E20.68808
G1 X138.948 Y93.511 E20.70958
G1 X139.805 Y93.798 E20.75166
G1 X141.003 Y94.35 E20.81309
G1 X141.396 Y94.563 E20.8339
G1 X142.17 Y95.028 E20.87595
G1 X142.977 Y95.622 E20.9226
G1 X143.284 Y95.872 E20.94104
G1 X143.958 Y96.472 E20.98306
G1 X144.696 Y97.272 E21.03374
G1 X144.977 Y97.611 E21.05424
G1 X145.522 Y98.331 E21.09629
G1 X146.123 Y99.317 E21.15006
G1 X146.321 Y99.688 E21.16964
G1 X146.71 Y100.503 E21.21169
G1 X147.065 Y101.472 E21.25975
G1 X147.175 Y101.827 E21.27705
G1 X147.404 Y102.701 E21.31912
G1 X147.541 Y103.486 E21.35623
G1 X147.599 Y103.917 E21.37648
G1 X147.689 Y105.125 E21.43288
G1 X147.699 Y105.798 E21.46422
G1 X147.7 Y126.641 E22.43476
G1 X147.689 Y127.482 E22.47392
G1 X147.634 Y128.407 E22.51707
G1 X147.589 Y128.833 E22.53702
G1 X147.454 Y129.726 E22.57907
G1 X147.203 Y130.731 E22.62731
G1 X147.084 Y131.122 E22.64634
G1 X146.783 Y131.973 E22.68837
G1 X146.302 Y132.997 E22.74105
G1 X146.092 Y133.386 E22.76164
G1 X145.628 Y134.161 E22.8037
G1 X144.996 Y135.018 E22.85328
G1 X144.742 Y135.327 E22.87191
G1 X144.138 Y135.999 E22.91398
G1 X143.36 Y136.712 E22.96312
G1 X143.02 Y136.993 E22.98366
G1 X142.299 Y137.537 E23.02571
G1 X141.267 Y138.16 E23.08184
G1 X140.538 Y138.54 E23.12012
G1 X138.468 Y139.57 E23.22779
G1 X136.841 Y140.443 E23.31376
G1 X136.018 Y140.874 E23.35702
G1 X135.2 Y141.257 E23.39908
G1 X134.352 Y141.566 E23.44111
G1 X133.479 Y141.799 E23.48318
G1 X132.59 Y141.954 E23.5252
G1 X131.597 Y142.033 E23.57158
G1 X130.958 Y142.048 E23.60135
G1 X101.896 Y142.047 E24.9546
G1 X101.194 Y142.037 E24.98729
G1 X100.292 Y141.984 E25.02936
G1 X99.399 Y141.852 E25.07139
G1 X98.521 Y141.641 E25.11344
G1 X97.665 Y141.353 E25.1555
G1 X96.837 Y140.991 E25.19757
G1 X96.045 Y140.557 E25.23963
G1 X95.295 Y140.054 E25.28168
G1 X94.292 Y139.212 E25.34266
G1 X92.434 Y137.436 E25.46234
G1 X91.586 Y136.669 E25.51558
G1 X90.899 Y136.03 E25.55927
G1 X90.266 Y135.386 E25.60132
G1 X89.693 Y134.688 E25.64337
G1 X89.184 Y133.942 E25.68542
G1 X88.743 Y133.154 E25.72747
G1 X88.373 Y132.33 E25.76953
G1 X88.077 Y131.477 E25.81157
G1 X87.858 Y130.6 E25.85366
G1 X87.718 Y129.708 E25.89571
G1 X87.658 Y128.845 E25.93599
G1 X87.645 Y128.238 E25.96426
G1 X87.644 Y112.904 E26.67827
G1 X87.607 Y110.308 E26.79917
G1 X87.438 Y106.528 E26.97535
G1 X87.428 Y106.011 E26.99943
G1 X87.437 Y104.514 E27.06914
G1 X87.483 Y103.612 E27.1112
G1 X87.608 Y102.717 E27.15328
G1 X87.811 Y101.837 E27.19533
G1 X88.092 Y100.979 E27.23737
G1 X88.447 Y100.149 E27.2794
G1 X88.875 Y99.353 E27.32149
G1 X89.371 Y98.599 E27.36351
G1 X89.932 Y97.891 E27.40557
G1 X90.554 Y97.236 E27.44763
G1 F2700 E22.44763
;MESH:Pot Photo Frame Portrait.stl
G0 F6000 X97.398 Y107.84
G0 X106.216 Y115.823
;TYPE:WALL-INNER
G1 F2700 E27.44763
G1 F1200 X106.045 Y115.822 E27.4556
G1 X105.791 Y115.723 E27.46829
G1 X105.66 Y115.599 E27.47669
G1 X105.376 Y115.151 E27.50139
G1 X105.325 Y114.981 E27.50965
G1 X105.356 Y114.801 E27.51816
G1 X105.182 Y114.744 E27.52668
G1 X105.049 Y114.613 E27.53538
G1 X104.838 Y114.277 E27.55385
G1 X104.762 Y114.093 E27.56312
G1 X104.793 Y113.861 E27.57402
G1 X104.534 Y113.766 E27.58687
G1 X104.229 Y113.279 E27.61362
G1 X104.192 Y113.151 E27.61983
G1 X104.222 Y112.932 E27.63012
G1 X104.013 Y112.859 E27.64043
G1 X103.88 Y112.706 E27.64987
G1 X103.653 Y112.335 E27.67012
G1 X103.618 Y112.203 E27.67648
G1 X103.647 Y112.002 E27.68594
G1 X103.454 Y111.936 E27.69543
G1 X103.308 Y111.774 E27.70559
G1 X103.087 Y111.403 E27.7257
G1 X103.042 Y111.249 E27.73317
G1 X103.073 Y111.066 E27.74181
G1 X102.897 Y111.008 E27.75044
G1 X102.742 Y110.841 E27.76105
G1 X102.516 Y110.465 E27.78148
G1 X102.472 Y110.299 E27.78947
G1 X102.501 Y110.137 E27.79714
G1 X102.343 Y110.089 E27.80483
G1 X102.17 Y109.909 E27.81645
G1 X101.953 Y109.56 E27.83559
G1 X101.898 Y109.344 E27.84597
G1 X101.925 Y109.208 E27.85242
G1 X101.791 Y109.17 E27.85891
G1 X101.634 Y109.035 E27.86855
G1 X101.335 Y108.546 E27.89524
G1 X101.372 Y108.267 E27.90834
G1 X101.108 Y108.172 E27.92141
G1 X100.844 Y107.742 E27.9449
G1 X100.765 Y107.532 E27.95535
G1 X100.765 Y107.324 E27.96504
G1 X100.924 Y106.966 E27.98328
G1 X101.124 Y106.754 E27.99685
G1 X101.364 Y106.66 E28.00885
G1 X110.8 Y106.66 E28.44823
G1 X111.122 Y106.753 E28.46384
G1 X111.322 Y106.962 E28.47731
G1 X111.488 Y107.324 E28.49585
G1 X111.488 Y107.532 E28.50553
G1 X111.408 Y107.742 E28.516
G1 X111.143 Y108.173 E28.53956
G1 X110.882 Y108.267 E28.55248
G1 X110.915 Y108.543 E28.56542
G1 X110.623 Y109.029 E28.59182
G1 X110.459 Y109.172 E28.60195
G1 X110.324 Y109.21 E28.60848
G1 X110.35 Y109.348 E28.61502
G1 X110.308 Y109.524 E28.62345
G1 X110.046 Y109.971 E28.64757
G1 X109.909 Y110.089 E28.65599
G1 X109.751 Y110.138 E28.66369
G1 X109.78 Y110.299 E28.67131
G1 X109.694 Y110.545 E28.68345
G1 X109.469 Y110.9 E28.70302
G1 X109.353 Y111.01 E28.71046
G1 X109.176 Y111.067 E28.71912
G1 X109.206 Y111.251 E28.7278
G1 X109.161 Y111.405 E28.73527
G1 X108.94 Y111.774 E28.7553
G1 X108.794 Y111.936 E28.76545
G1 X108.601 Y112.002 E28.77495
G1 X108.638 Y112.257 E28.78695
G1 X108.375 Y112.701 E28.81098
G1 X108.239 Y112.859 E28.82069
G1 X108.031 Y112.932 E28.83095
G1 X108.06 Y113.151 E28.84124
G1 X107.982 Y113.345 E28.85097
G1 X107.719 Y113.767 E28.87413
G1 X107.456 Y113.863 E28.88716
G1 X107.491 Y114.142 E28.90026
G1 X107.192 Y114.623 E28.92663
G1 X107.065 Y114.744 E28.9348
G1 X106.893 Y114.8 E28.94322
G1 X106.922 Y114.979 E28.95166
G1 X106.866 Y115.156 E28.96031
G1 X106.603 Y115.601 E28.98438
G1 X106.471 Y115.724 E28.99278
G1 X106.216 Y115.823 E29.00552
G1 F2700 E24.00552
G0 F6000 X106.217 Y115.921
G0 X113.428 Y117.091
G0 X106.676 Y127.879
G1 F2700 E29.00552
G1 F814.9 X105.692 Y127.884 E29.07299
G0 F6000 X113.416 Y127.804
G0 X113.588 Y127.976
G1 F1200 X113.588 Y105.164 E30.13521
G1 X106.495 Y105.164 E30.46549
G1 X106.192 Y105.308 E30.48111
G1 X105.984 Y105.308 E30.4908
G1 X105.811 Y105.249 E30.49931
G1 X105.721 Y105.164 E30.50507
G1 X98.66 Y105.164 E30.83386
G1 X98.66 Y127.976 E31.89608
G1 X105 Y127.976 E32.1913
G1 F975.6 X105.692 Y127.884 E32.23128
G1 X105.212 Y127.552 E32.26471
G1 F1200 X105.092 Y127.192 E32.28238
G1 X105.092 Y121.204 E32.56121
G1 X105.144 Y121.045 E32.56899
G1 X105.278 Y120.857 E32.57975
G1 X105.591 Y120.692 E32.59622
G1 X106.654 Y120.692 E32.64572
G1 X106.971 Y120.858 E32.66238
G1 X107.104 Y121.046 E32.6731
G1 X107.156 Y121.203 E32.68081
G1 X107.156 Y127.192 E32.95968
G1 X107.036 Y127.552 E32.97735
G1 F965.8 X106.676 Y127.879 E33.00549
G1 X107.248 Y127.976 E33.03905
G1 F1200 X113.588 Y127.976 E33.33427
G0 F6000 X113.988 Y128.376
;TYPE:WALL-OUTER
G1 F1200 X113.988 Y104.764 E34.43374
G1 X106.371 Y104.764 E34.78842
G1 X106.181 Y104.894 E34.79914
G1 X105.995 Y104.894 E34.8078
G1 X105.882 Y104.764 E34.81582
G1 X98.26 Y104.764 E35.17074
G1 X98.26 Y128.376 E36.27021
G1 X113.988 Y128.376 E37.00257
G1 F2700 E32.00257
G0 F6000 X113.721 Y128.106
G0 X106.989 Y127.786
G0 X106.591 Y127.693
G0 X106.591 Y127.39
G1 F2700 E37.00257
G1 F1200 X105.692 Y127.392 E37.04443
G1 X105.532 Y127.312 E37.05276
G1 X105.492 Y127.192 E37.05865
G1 X105.496 Y121.249 E37.33538
G1 X105.529 Y121.175 E37.33916
G1 X105.643 Y121.097 E37.34559
G1 X106.556 Y121.092 E37.3881
G1 X106.695 Y121.147 E37.39506
G1 X106.752 Y121.249 E37.4005
G1 X106.756 Y127.192 E37.67723
G1 X106.716 Y127.312 E37.68312
G1 X106.591 Y127.39 E37.68998
G1 F2700 E32.68998
G0 F6000 X106.591 Y127.693
G0 X106.989 Y127.786
G0 X107.027 Y129.241
G0 X97.41 Y129.229
G0 X97.398 Y116.002
G0 X106.103 Y115.426
G1 F2700 E37.68998
G1 F1200 X105.974 Y115.352 E37.69691
G1 X105.717 Y114.945 E37.71932
G1 F1162.2 X105.824 Y114.623 E37.73564
G1 F1069 X105.972 Y114.491 E37.746
G1 F1100.9 X105.532 Y114.457 E37.7684
G1 F1200 X105.393 Y114.412 E37.7752
G1 X105.15 Y114.02 E37.79668
G1 X105.171 Y113.866 E37.80392
G1 F1162.2 X105.258 Y113.686 E37.81353
