;FLAVOR:Marlin
;TIME:1251
;Filament used: 0.666803m
;Layer height: 0.28
;MINX:109.705
;MINY:91.27
;MINZ:0.28
;MAXX:154.238
;MAXY:136.391
;MAXZ:24.92
;TARGET_MACHINE.NAME:Creality Ender-3
;Generated with Cura_SteamEngine 5.7.1
M140 S50
M105
M190 S50
M104 S200
M105
M109 S200
M82 ;absolute extrusion mode
; Ender 3 Custom Start G-code
G92 E0 ; Reset Extruder
G28 ; Home all axes
G1 Z2.0 F3000 ; Move Z Axis up little to prevent scratching of Heat Bed
G1 X0.1 Y20 Z0.3 F5000.0 ; Move to start position
G1 X0.1 Y200.0 Z0.3 F1500.0 E15 ; Draw the first line
G1 X0.4 Y200.0 Z0.3 F5000.0 ; Move to side a little
G1 X0.4 Y20 Z0.3 F1500.0 E30 ; Draw the second line
G92 E0 ; Reset Extruder
G1 Z2.0 F3000 ; Move Z Axis up little to prevent scratching of Heat Bed
G1 X5 Y20 Z0.3 F5000.0 ; Move over to prevent blob squish
G92 E0
G92 E0
G1 F2700 E-5
;LAYER_COUNT:89
;LAYER:0
M107
G0 F6000 X114.665 Y101.768 Z0.28
;TYPE:SKIRT
G1 F2700 E0
G1 F1200 X115.421 Y100.957 E0.05163
G1 X115.927 Y100.444 E0.08518
G1 X116.933 Y99.545 E0.148
G1 X119.407 Y97.596 E0.29465
G1 X121.347 Y95.968 E0.41258
G1 X123.053 Y94.463 E0.51851
G1 X123.827 Y93.843 E0.56469
G1 X124.639 Y93.303 E0.6101
G1 X125.494 Y92.837 E0.65544
G1 X126.384 Y92.451 E0.70061
G1 X127.189 Y92.177 E0.74021
G1 X128.429 Y91.813 E0.80039
G1 X129.128 Y91.629 E0.83404
G1 X130.079 Y91.425 E0.87933
G1 X131.045 Y91.305 E0.92466
G1 X131.948 Y91.27 E0.96674
G1 X132.991 Y91.324 E1.01537
G1 X133.916 Y91.454 E1.05887
G1 X134.665 Y91.62 E1.09459
G1 X135.887 Y91.936 E1.15336
G1 X136.689 Y92.159 E1.19212
G1 X137.615 Y92.466 E1.23755
G1 X138.507 Y92.853 E1.28282
G1 X139.363 Y93.317 E1.32816
G1 X140.174 Y93.856 E1.37351
G1 X140.905 Y94.439 E1.41704
G1 X141.487 Y94.981 E1.45408
G1 X142.098 Y95.595 E1.49441
G1 X143.96 Y97.415 E1.61565
G1 X145.804 Y99.117 E1.7325
G1 X147.74 Y100.805 E1.8521
G1 X148.657 Y101.573 E1.9078
G1 X149.499 Y102.357 E1.96137
G1 X150.391 Y103.283 E2.02124
G1 X150.895 Y103.831 E2.05591
G1 X151.521 Y104.578 E2.10129
G1 X152.077 Y105.376 E2.14658
G1 X152.528 Y106.158 E2.18861
G1 X152.968 Y107.109 E2.23741
G1 X153.305 Y108.056 E2.28421
G1 X153.65 Y109.199 E2.33981
G1 X153.85 Y109.93 E2.3751
G1 X154.063 Y110.879 E2.42038
G1 X154.194 Y111.844 E2.46573
G1 X154.238 Y112.817 E2.51108
G1 X154.195 Y113.789 E2.55639
G1 X154.073 Y114.72 E2.60011
G1 X153.857 Y115.693 E2.64652
G1 X153.607 Y116.619 E2.69118
G1 X153.326 Y117.577 E2.73767
G1 X153.01 Y118.496 E2.78292
G1 X152.643 Y119.322 E2.82501
G1 X152.132 Y120.242 E2.87401
G1 X150.859 Y122.295 E2.9865
G1 X149.222 Y125.121 E3.13857
G1 X148.723 Y125.916 E3.18228
G1 X148.117 Y126.717 E3.22905
G1 X147.543 Y127.357 E3.26908
G1 X146.689 Y128.229 E3.32591
G1 X146.167 Y128.736 E3.35979
G1 X145.485 Y129.342 E3.40228
G1 X144.175 Y130.408 E3.48092
G1 X142.184 Y132.09 E3.60228
G1 X140.823 Y133.284 E3.68659
G1 X140.058 Y133.886 E3.73192
G1 X139.242 Y134.418 E3.77728
G1 X138.383 Y134.876 E3.8226
G1 X137.494 Y135.253 E3.86757
G1 X136.76 Y135.5 E3.90363
G1 X135.858 Y135.765 E3.94741
G1 X134.856 Y136.034 E3.99571
G1 X133.904 Y136.238 E4.04105
G1 X132.939 Y136.357 E4.08633
G1 X132.036 Y136.391 E4.1284
G1 X130.994 Y136.336 E4.17699
G1 X130.028 Y136.198 E4.22243
G1 X129.109 Y135.983 E4.26638
G1 X128.054 Y135.683 E4.31745
G1 X125.716 Y134.962 E4.43137
G1 X123.253 Y134.249 E4.55077
G1 X121.379 Y133.755 E4.64101
G1 X119.742 Y133.271 E4.7205
G1 X118.822 Y132.949 E4.76589
G1 X117.936 Y132.547 E4.81119
G1 X117.086 Y132.068 E4.85662
G1 X116.305 Y131.531 E4.90076
G1 X115.212 Y130.592 E4.96785
G1 X114.311 Y129.703 E5.02679
G1 X113.814 Y129.194 E5.05992
G1 X113.191 Y128.493 E5.10359
G1 X112.59 Y127.683 E5.15055
G1 X112.083 Y126.852 E5.19588
G1 X111.645 Y125.967 E5.24186
G1 X111.194 Y124.754 E5.30212
G1 X110.848 Y123.605 E5.358
G1 X110.661 Y122.931 E5.39057
G1 X110.454 Y122.025 E5.43384
G1 X110.361 Y121.442 E5.46133
G1 X110.114 Y119.415 E5.55641
G1 X109.801 Y117.203 E5.66044
G1 X109.71 Y116.233 E5.70581
G1 X109.705 Y115.26 E5.75111
G1 X109.777 Y114.36 E5.79316
G1 X109.944 Y113.373 E5.83977
G1 X110.091 Y112.767 E5.8688
G1 X110.325 Y111.925 E5.9095
G1 X110.712 Y110.667 E5.97078
G1 X111.159 Y109.342 E6.0359
G1 X112.026 Y106.678 E6.16635
G1 X112.244 Y105.967 E6.20098
G1 X112.547 Y105.116 E6.24304
G1 X112.984 Y104.166 E6.29173
G1 X113.471 Y103.322 E6.3371
G1 X114.03 Y102.525 E6.38243
G1 X114.665 Y101.768 E6.42844
G0 F6000 X114.958 Y102.041
G1 F1200 X115.706 Y101.238 E6.47954
G1 X116.194 Y100.742 E6.51194
G1 X117.181 Y99.859 E6.57361
G1 X119.655 Y97.91 E6.72026
G1 X121.612 Y96.268 E6.83922
G1 X123.304 Y94.775 E6.94429
G1 X124.049 Y94.176 E6.9888
G1 X124.831 Y93.654 E7.03258
G1 X125.654 Y93.204 E7.07626
G1 X126.513 Y92.83 E7.11989
G1 X127.302 Y92.561 E7.1587
G1 X128.531 Y92.2 E7.21835
G1 X129.212 Y92.02 E7.25115
G1 X130.129 Y91.822 E7.29483
G1 X131.06 Y91.705 E7.33852
G1 X131.963 Y91.67 E7.3806
G1 X132.935 Y91.72 E7.42592
G1 X133.86 Y91.85 E7.46942
G1 X134.565 Y92.007 E7.50305
G1 X135.78 Y92.321 E7.56148
G1 X136.564 Y92.539 E7.59937
G1 X137.456 Y92.833 E7.64311
G1 X138.317 Y93.205 E7.68678
G1 X139.142 Y93.651 E7.73045
G1 X139.925 Y94.169 E7.77417
G1 X140.656 Y94.752 E7.8177
G1 X141.203 Y95.263 E7.85256
G1 X141.818 Y95.881 E7.89316
G1 X143.68 Y97.701 E8.0144
G1 X145.541 Y99.419 E8.13233
G1 X147.483 Y101.112 E8.2523
G1 X148.4 Y101.88 E8.308
G1 X149.211 Y102.634 E8.35956
G1 X150.097 Y103.554 E8.41903
G1 X150.589 Y104.088 E8.45284
G1 X151.193 Y104.807 E8.49657
G1 X151.73 Y105.576 E8.54024
G1 X152.181 Y106.358 E8.58228
G1 X152.591 Y107.243 E8.6277
G1 X152.922 Y108.172 E8.67362
G1 X153.264 Y109.305 E8.72873
G1 X153.46 Y110.018 E8.76316
G1 X153.667 Y110.933 E8.80684
G1 X153.794 Y111.863 E8.85055
G1 X153.838 Y112.8 E8.89423
G1 X153.798 Y113.737 E8.9379
G1 X153.676 Y114.668 E8.98162
G1 X153.471 Y115.589 E9.02555
G1 X153.223 Y116.507 E9.06983
G1 X152.948 Y117.447 E9.11544
G1 X152.644 Y118.334 E9.1591
G1 X152.277 Y119.16 E9.20119
G1 X151.792 Y120.031 E9.24761
G1 X150.519 Y122.084 E9.36009
G1 X148.883 Y124.908 E9.51206
G1 X148.384 Y125.703 E9.55576
G1 X147.819 Y126.45 E9.59938
G1 X147.257 Y127.077 E9.63858
G1 X146.41 Y127.942 E9.69496
G1 X145.901 Y128.437 E9.72802
G1 X145.219 Y129.043 E9.7705
G1 X143.917 Y130.102 E9.84865
G1 X141.926 Y131.784 E9.97001
G1 X140.575 Y132.97 E10.05372
G1 X139.839 Y133.551 E10.09738
G1 X139.053 Y134.065 E10.14111
G1 X138.226 Y134.508 E10.1848
G1 X137.366 Y134.874 E10.22832
G1 X136.647 Y135.116 E10.26365
G1 X135.754 Y135.379 E10.30699
G1 X134.772 Y135.643 E10.35434
G1 X133.855 Y135.841 E10.39803
G1 X132.924 Y135.957 E10.44171
G1 X132.021 Y135.991 E10.48379
G1 X131.05 Y135.94 E10.52907
G1 X130.119 Y135.809 E10.57285
G1 X129.218 Y135.598 E10.61593
G1 X128.172 Y135.301 E10.66657
G1 X125.834 Y134.58 E10.78049
G1 X123.355 Y133.862 E10.90067
G1 X121.492 Y133.371 E10.99038
G1 X119.873 Y132.893 E11.06898
G1 X118.987 Y132.585 E11.11266
G1 X118.132 Y132.198 E11.15636
G1 X117.313 Y131.738 E11.2001
G1 X116.532 Y131.201 E11.24424
G1 X115.493 Y130.307 E11.30806
G1 X114.597 Y129.424 E11.36664
G1 X114.113 Y128.928 E11.39891
G1 X113.49 Y128.227 E11.44258
G1 X112.931 Y127.474 E11.48625
G1 X112.441 Y126.674 E11.52993
G1 X112.02 Y125.827 E11.57397
G1 X111.577 Y124.638 E11.63305
G1 X111.233 Y123.498 E11.6885
G1 X111.051 Y122.842 E11.7202
G1 X110.849 Y121.962 E11.76224
G1 X110.758 Y121.394 E11.78903
G1 X110.511 Y119.367 E11.88411
G1 X110.199 Y117.165 E11.98767
G1 X110.11 Y116.23 E12.03141
G1 X110.104 Y115.292 E12.07508
G1 X110.176 Y114.392 E12.11713
G1 X110.333 Y113.467 E12.16081
G1 X110.477 Y112.874 E12.18923
G1 X110.707 Y112.043 E12.22938
G1 X111.091 Y110.795 E12.29018
G1 X111.538 Y109.47 E12.35529
G1 X112.406 Y106.802 E12.48594
G1 X112.621 Y106.101 E12.52008
G1 X112.924 Y105.25 E12.56214
G1 X113.331 Y104.365 E12.6075
G1 X113.799 Y103.551 E12.65122
G1 X114.337 Y102.782 E12.69492
G1 X114.958 Y102.041 E12.73994
G0 F6000 X115.251 Y102.314
G1 F1200 X115.992 Y101.518 E12.79058
G1 X116.461 Y101.04 E12.82176
G1 X117.429 Y100.173 E12.88227
G1 X119.903 Y98.224 E13.02893
G1 X121.877 Y96.568 E13.1489
G1 X123.569 Y95.075 E13.25398
G1 X124.272 Y94.508 E13.29603
G1 X125.023 Y94.005 E13.33812
G1 X125.814 Y93.571 E13.38013
G1 X126.642 Y93.209 E13.42221
G1 X127.415 Y92.945 E13.46025
G1 X128.634 Y92.587 E13.51941
G1 X129.297 Y92.411 E13.55135
G1 X130.179 Y92.219 E13.59338
G1 X131.075 Y92.105 E13.63544
G1 X131.978 Y92.07 E13.67752
G1 X132.88 Y92.116 E13.71957
G1 X133.774 Y92.241 E13.76161
G1 X134.465 Y92.394 E13.79456
G1 X135.673 Y92.706 E13.85266
G1 X136.44 Y92.919 E13.88972
G1 X137.298 Y93.2 E13.93176
G1 X138.127 Y93.557 E13.97379
G1 X138.922 Y93.985 E14.01583
G1 X139.676 Y94.482 E14.05788
G1 X140.383 Y95.044 E14.09994
G1 X140.919 Y95.545 E14.1341
G1 X141.538 Y96.167 E14.17496
G1 X143.4 Y97.987 E14.2962
G1 X145.278 Y99.721 E14.41523
G1 X147.226 Y101.419 E14.53556
G1 X148.143 Y102.187 E14.59125
G1 X148.923 Y102.912 E14.64084
G1 X149.803 Y103.825 E14.69989
G1 X150.283 Y104.346 E14.73287
G1 X150.865 Y105.036 E14.7749
G1 X151.383 Y105.776 E14.81697
G1 X151.834 Y106.558 E14.859
G1 X152.214 Y107.377 E14.90104
G1 X152.539 Y108.288 E14.94608
G1 X152.878 Y109.412 E15.00075
G1 X153.07 Y110.107 E15.03432
G1 X153.271 Y110.987 E15.07635
G1 X153.394 Y111.882 E15.11842
G1 X153.438 Y112.784 E15.16047
G1 X153.401 Y113.686 E15.20251
G1 X153.285 Y114.582 E15.24458
G1 X153.085 Y115.485 E15.28764
G1 X152.839 Y116.395 E15.33154
G1 X152.57 Y117.318 E15.3763
G1 X152.278 Y118.172 E15.41833
G1 X151.911 Y118.998 E15.46042
G1 X151.452 Y119.82 E15.50426
G1 X150.179 Y121.873 E15.61674
G1 X148.829 Y124.191 E15.74165
G1 X148.544 Y124.696 E15.76865
G1 X148.065 Y125.462 E15.81071
G1 X147.521 Y126.183 E15.85277
G1 X146.971 Y126.797 E15.89116
G1 X146.131 Y127.655 E15.94707
G1 X145.635 Y128.138 E15.9793
G1 X144.953 Y128.744 E16.02179
G1 X143.659 Y129.796 E16.09944
G1 X141.668 Y131.478 E16.2208
G1 X141.132 Y131.957 E16.25428
G1 X140.327 Y132.656 E16.30392
G1 X139.619 Y133.217 E16.34598
G1 X138.864 Y133.713 E16.38805
G1 X138.069 Y134.14 E16.43007
G1 X137.238 Y134.495 E16.47214
G1 X136.534 Y134.732 E16.50673
G1 X135.65 Y134.993 E16.54965
G1 X134.687 Y135.252 E16.59609
G1 X133.805 Y135.444 E16.63812
G1 X132.909 Y135.557 E16.68017
G1 X132.006 Y135.591 E16.72225
G1 X131.105 Y135.544 E16.76426
G1 X130.21 Y135.419 E16.80634
G1 X129.327 Y135.213 E16.84856
G1 X128.29 Y134.919 E16.89875
G1 X125.952 Y134.198 E17.01267
G1 X123.457 Y133.475 E17.13363
G1 X121.605 Y132.987 E17.22281
G1 X120.004 Y132.515 E17.30053
G1 X119.151 Y132.22 E17.34256
G1 X118.327 Y131.849 E17.38464
G1 X117.539 Y131.408 E17.42669
G1 X116.793 Y130.898 E17.46877
G1 X115.774 Y130.022 E17.53134
G1 X114.883 Y129.145 E17.58955
G1 X114.412 Y128.662 E17.62097
G1 X113.811 Y127.988 E17.66302
G1 X113.272 Y127.264 E17.70505
G1 X112.799 Y126.495 E17.74708
G1 X112.395 Y125.687 E17.78915
G1 X111.96 Y124.522 E17.84705
G1 X111.618 Y123.391 E17.90207
G1 X111.441 Y122.753 E17.9329
G1 X111.239 Y121.873 E17.97495
G1 X111.155 Y121.342 E17.99998
G1 X111.053 Y120.558 E18.03679
G1 X110.908 Y119.32 E18.09483
G1 X110.597 Y117.126 E18.19802
G1 X110.51 Y116.227 E18.24007
G1 X110.503 Y115.324 E18.28212
G1 X110.575 Y114.424 E18.32416
G1 X110.727 Y113.534 E18.36621
G1 X110.863 Y112.98 E18.39277
G1 X111.089 Y112.161 E18.43233
G1 X111.47 Y110.923 E18.49264
G1 X111.917 Y109.598 E18.55776
G1 X112.786 Y106.926 E18.68859
G1 X112.998 Y106.235 E18.72225
G1 X113.301 Y105.384 E18.76431
G1 X113.678 Y104.564 E18.80634
G1 X114.127 Y103.78 E18.84841
G1 X114.643 Y103.039 E18.89045
G1 X115.251 Y102.314 E18.93451
G1 F2700 E13.93451
G0 F6000 X122.917 Y109.328
G1 F2700 E18.93451
G1 F1200 X123.841 Y108.355 E18.99699
G1 X125.111 Y107.999 E19.05841
G1 X126.381 Y108.355 E19.11982
G1 X127.306 Y109.328 E19.18234
G1 X127.504 Y110.014 E19.21558
G1 X127.574 Y110.118 E19.22142
G1 X127.75 Y110.152 E19.22977
G1 X128.364 Y109.98 E19.25946
G1 X129.098 Y110.192 E19.29503
G1 X129.585 Y110.703 E19.3279
G1 X129.63 Y110.861 E19.33555
G1 X129.677 Y110.944 E19.33999
G1 X129.844 Y111.119 E19.35126
G1 X129.84 Y111.177 E19.35397
G1 X129.843 Y111.224 E19.35616
G1 X129.886 Y111.467 E19.36765
G1 X129.871 Y111.521 E19.37026
G1 X129.672 Y111.722 E19.38343
G1 X129.621 Y111.809 E19.38813
G1 X129.548 Y112.069 E19.4007
G1 X129.052 Y112.564 E19.43333
G1 X128.707 Y112.661 E19.45002
G1 X128.533 Y112.68 E19.45817
G1 X128.473 Y112.696 E19.46106
G1 X128.355 Y112.748 E19.46706
G1 X127.726 Y112.564 E19.49758
G1 X127.282 Y112.121 E19.52679
G1 X127.171 Y112.065 E19.53257
G1 X127 Y112.121 E19.54095
G1 X126.384 Y112.735 E19.58145
G1 X125.441 Y113 E19.62706
G1 X125.337 Y113.07 E19.6329
G1 X125.295 Y113.188 E19.63873
G1 X125.35 Y113.331 E19.64587
G1 X126.27 Y114.302 E19.70815
G1 X126.674 Y115.682 E19.77511
G1 X126.534 Y116.183 E19.79933
G1 X126.54 Y116.308 E19.80516
G1 X126.673 Y116.429 E19.81353
G1 X127.041 Y116.533 E19.83134
G1 X127.242 Y116.746 E19.84497
G1 X127.317 Y116.792 E19.84907
G1 X128.019 Y117.533 E19.8966
G1 X128.32 Y118.501 E19.9438
G1 X128.09 Y119.422 E19.98801
G1 X127.375 Y120.155 E20.03569
G1 X127.325 Y120.241 E20.04032
G1 X126.972 Y121.503 E20.10134
G1 X125.906 Y122.569 E20.17154
G1 X124.426 Y122.983 E20.2431
G1 X123.014 Y122.57 E20.3116
G1 X121.883 Y121.439 E20.38608
G1 X121.468 Y120.025 E20.4547
G1 X121.884 Y118.607 E20.52351
G1 X122.215 Y118.256 E20.54597
G1 X122.269 Y118.143 E20.5518
G1 X122.211 Y117.978 E20.55995
G1 X121.299 Y117.065 E20.62004
G1 X120.893 Y115.684 E20.68706
G1 X121.297 Y114.303 E20.75406
G1 X122.344 Y113.2 E20.82488
G1 X123.586 Y112.849 E20.88498
G1 X123.69 Y112.78 E20.89079
G1 X123.732 Y112.662 E20.89662
G1 X123.673 Y112.516 E20.90395
G1 X122.919 Y111.762 E20.95361
G1 X122.562 Y110.545 E21.01266
G1 X122.917 Y109.328 E21.07169
G0 F6000 X123.274 Y109.532
G1 F1200 X124.055 Y108.711 E21.12446
G1 X125.111 Y108.414 E21.17554
G1 X126.168 Y108.711 E21.22666
G1 X126.949 Y109.533 E21.27946
G1 X127.12 Y110.125 E21.30815
G1 X127.217 Y110.321 E21.31833
G1 X127.378 Y110.468 E21.32848
G1 X127.581 Y110.548 E21.33864
G1 X127.858 Y110.537 E21.35155
G1 X128.36 Y110.396 E21.37583
G1 X128.883 Y110.547 E21.40118
G1 X129.227 Y110.908 E21.4244
G1 X129.245 Y110.971 E21.42745
G1 X129.388 Y111.22 E21.44082
G1 X129.448 Y111.283 E21.44487
G1 X129.449 Y111.294 E21.44539
G1 X129.462 Y111.367 E21.44884
G1 X129.388 Y111.441 E21.45371
G1 X129.236 Y111.701 E21.46774
G1 X129.192 Y111.859 E21.47537
G1 X128.843 Y112.207 E21.49832
G1 X128.631 Y112.267 E21.50858
G1 X128.49 Y112.282 E21.51518
G1 X128.332 Y112.324 E21.5228
G1 X127.935 Y112.208 E21.54206
G1 X127.564 Y111.838 E21.56645
G1 X127.384 Y111.715 E21.57661
G1 X127.172 Y111.664 E21.58676
G1 X126.956 Y111.692 E21.5969
G1 X126.717 Y111.838 E21.60994
G1 X126.175 Y112.378 E21.64557
G1 X125.333 Y112.615 E21.6863
G1 X125.137 Y112.712 E21.69648
G1 X124.988 Y112.871 E21.70663
G1 X124.907 Y113.074 E21.71681
G1 X124.903 Y113.292 E21.72696
G1 X124.978 Y113.497 E21.73712
G1 X125.059 Y113.606 E21.74345
G1 X125.913 Y114.507 E21.80125
G1 X126.258 Y115.686 E21.85845
G1 X126.149 Y116.076 E21.87731
G1 X126.13 Y116.293 E21.88745
G1 X126.189 Y116.503 E21.89761
G1 X126.32 Y116.678 E21.90779
G1 X126.564 Y116.814 E21.9208
G1 X126.825 Y116.888 E21.93343
G1 X126.951 Y117.021 E21.94196
G1 X127.023 Y117.064 E21.94586
G1 X127.665 Y117.741 E21.98931
G1 X127.905 Y118.513 E22.02695
G1 X127.729 Y119.219 E22.06083
G1 X127.088 Y119.876 E22.10357
G1 X126.94 Y120.133 E22.11738
G1 X126.615 Y121.294 E22.17352
G1 X125.697 Y122.212 E22.23397
G1 X124.429 Y122.567 E22.29529
G1 X123.225 Y122.215 E22.3537
G1 X122.238 Y121.228 E22.41869
G1 X121.886 Y120.025 E22.47706
G1 X122.241 Y118.812 E22.53591
G1 X122.506 Y118.531 E22.5539
G1 X122.625 Y118.347 E22.5641
G1 X122.67 Y118.134 E22.57424
G1 X122.635 Y117.918 E22.58443
G1 X122.494 Y117.695 E22.59671
G1 X121.654 Y116.854 E22.65206
G1 X121.31 Y115.683 E22.70889
G1 X121.654 Y114.507 E22.76595
G1 X122.558 Y113.555 E22.82708
G1 X123.695 Y113.234 E22.88209
G1 X123.891 Y113.138 E22.89225
G1 X124.039 Y112.978 E22.9024
G1 X124.12 Y112.775 E22.91258
G1 X124.124 Y112.557 E22.92273
G1 X124.049 Y112.352 E22.93289
G1 X123.956 Y112.233 E22.93993
G1 X123.274 Y111.551 E22.98484
G1 X122.979 Y110.544 E23.0337
