;FLAVOR:Marlin
;TIME:3993
;Filament used: 2.89426m
;Layer height: 0.28
;MINX:86.357
;MINY:89.908
;MINZ:0.28
;MAXX:151.455
;MAXY:142.778
;MAXZ:45.08
;TARGET_MACHINE.NAME:Creality Ender-3
;Generated with Cura_SteamEngine 5.7.1
M140 S65
M105
M190 S65
M104 S210
M105
M109 S210
M82 ;absolute extrusion mode
; Ender 3 Custom Start G-code
G92 E0 ; Reset Extruder
G28 ; Home all axes
G1 Z2.0 F3000 ; Move Z Axis up little to prevent scratching of Heat Bed
G1 X0.1 Y20 Z0.3 F5000.0 ; Move to start position
G1 X0.1 Y200.0 Z0.3 F1500.0 E15 ; Draw the first line
G1 X0.4 Y200.0 Z0.3 F5000.0 ; Move to side a little
G1 X0.4 Y20 Z0.3 F1500.0 E30 ; Draw the second line
G92 E0 ; Reset Extruder
G1 Z2.0 F3000 ; Move Z Axis up little to prevent scratching of Heat Bed
G1 X5 Y20 Z0.3 F5000.0 ; Move over to prevent blob squish
G92 E0
G92 E0
G1 F2700 E-5
;LAYER_COUNT:161
;LAYER:0
M107
G0 F6000 X93.068 Y94.196 Z0.28
;TYPE:SKIRT
G1 F2700 E0
G1 F1200 X93.78 Y93.533 E0.0453
G1 X94.548 Y92.934 E0.09065
G1 X95.306 Y92.442 E0.13273
G1 X96.23 Y91.953 E0.18141
G1 X97.062 Y91.603 E0.22344
G1 X97.779 Y91.362 E0.25866
G1 X98.661 Y91.102 E0.30148
G1 X101.007 Y90.444 E0.41494
G1 X101.693 Y90.264 E0.44796
G1 X102.646 Y90.061 E0.49333
G1 X103.611 Y89.942 E0.53861
G1 X104.577 Y89.908 E0.58362
G1 X105.303 Y89.939 E0.61745
G1 X105.804 Y89.978 E0.64085
G1 X107.558 Y90.144 E0.72289
G1 X110.062 Y90.311 E0.83974
G1 X112.652 Y90.41 E0.96043
G1 X115.113 Y90.434 E1.07503
G1 X117.645 Y90.387 E1.19296
G1 X120.151 Y90.275 E1.30976
G1 X121.054 Y90.273 E1.35181
G1 X122.11 Y90.366 E1.40117
G1 X123.34 Y90.607 E1.45953
G1 X124.552 Y90.926 E1.51789
G1 X125.843 Y91.298 E1.58045
G1 X126.766 Y91.612 E1.62585
G1 X127.631 Y91.994 E1.66988
G1 X128.83 Y92.68 E1.7342
G1 X131.117 Y94.192 E1.86186
G1 X133.238 Y95.509 E1.97812
G1 X135.406 Y96.773 E2.09497
G1 X137.626 Y97.984 E2.21273
G1 X139.854 Y99.117 E2.32912
G1 X141.194 Y99.755 E2.39822
G1 X141.836 Y100.077 E2.43167
G1 X142.685 Y100.555 E2.47703
G1 X143.501 Y101.116 E2.52314
G1 X144.538 Y102.006 E2.58678
G1 X145.017 Y102.486 E2.61835
G1 X147.069 Y104.649 E2.75718
G1 X147.569 Y105.193 E2.79159
G1 X148.195 Y105.941 E2.83701
G1 X148.751 Y106.739 E2.88229
G1 X149.202 Y107.521 E2.92433
G1 X149.64 Y108.468 E2.97291
G1 X149.948 Y109.322 E3.01519
G1 X150.165 Y110.02 E3.04922
G1 X150.833 Y112.31 E3.1603
G1 X151.066 Y113.15 E3.20089
G1 X151.28 Y114.1 E3.24623
G1 X151.411 Y115.065 E3.29158
G1 X151.455 Y116.038 E3.33693
G1 X151.413 Y117.012 E3.38233
G1 X151.296 Y117.907 E3.42436
G1 X151.104 Y118.803 E3.46703
G1 X150.93 Y119.466 E3.49895
G1 X150.206 Y122.053 E3.62404
G1 X149.998 Y122.753 E3.65804
G1 X149.679 Y123.673 E3.70338
G1 X149.28 Y124.562 E3.74875
G1 X148.803 Y125.411 E3.7941
G1 X148.245 Y126.226 E3.84009
G1 X147.379 Y127.244 E3.90233
G1 X146.813 Y127.83 E3.94026
G1 X145.036 Y129.607 E4.05728
G1 X144.553 Y130.077 E4.08866
G1 X143.611 Y130.894 E4.14672
G1 X142.891 Y131.451 E4.18911
G1 X142.108 Y132.039 E4.23471
G1 X140.185 Y133.57 E4.34916
G1 X138.202 Y135.24 E4.46988
G1 X136.352 Y136.89 E4.58531
G1 X134.472 Y138.663 E4.70564
G1 X134.008 Y139.114 E4.73577
G1 X133.305 Y139.736 E4.77948
G1 X132.493 Y140.333 E4.82641
G1 X131.659 Y140.839 E4.87183
G1 X130.849 Y141.239 E4.9139
G1 X129.52 Y141.731 E4.97988
G1 X128.473 Y142.039 E5.0307
G1 X127.135 Y142.401 E5.09525
G1 X126.184 Y142.613 E5.14062
G1 X125.219 Y142.738 E5.18593
G1 X124.244 Y142.778 E5.23136
G1 X123.298 Y142.734 E5.27546
G1 X120.95 Y142.514 E5.38527
G1 X118.441 Y142.346 E5.50236
G1 X115.909 Y142.249 E5.62035
G1 X113.421 Y142.223 E5.73621
G1 X110.461 Y142.278 E5.87406
G1 X109.559 Y142.255 E5.91608
G1 X108.519 Y142.137 E5.96481
G1 X107.574 Y141.94 E6.00976
G1 X106.932 Y141.769 E6.0407
G1 X105.132 Y141.234 E6.12814
G1 X104.214 Y140.913 E6.17342
G1 X103.325 Y140.512 E6.21884
G1 X102.477 Y140.034 E6.26416
G1 X101.669 Y139.479 E6.30981
G1 X100.813 Y138.763 E6.36177
G1 X100.359 Y138.332 E6.39092
G1 X99.28 Y137.258 E6.46181
G1 X98.797 Y136.76 E6.49411
G1 X98.164 Y136.044 E6.53862
G1 X97.573 Y135.246 E6.58485
G1 X97.301 Y134.82 E6.60839
G1 X96.778 Y133.957 E6.65538
G1 X96.306 Y133.151 E6.69887
G1 X94.96 Y131.002 E6.81694
G1 X93.126 Y128.266 E6.97032
G1 X92.622 Y127.433 E7.01565
G1 X92.208 Y126.588 E7.05947
G1 X91.807 Y125.529 E7.1122
G1 X90.884 Y122.65 E7.25298
G1 X90.058 Y120.306 E7.3687
G1 X89.144 Y117.932 E7.48715
G1 X88.186 Y115.629 E7.6033
G1 X87.859 Y114.729 E7.64789
G1 X87.653 Y114.065 E7.68026
G1 X86.934 Y111.61 E7.79938
G1 X86.745 Y110.919 E7.83274
G1 X86.532 Y109.97 E7.87802
G1 X86.401 Y109.005 E7.92337
G1 X86.357 Y108.032 E7.96872
G1 X86.4 Y107.06 E8.01403
G1 X86.516 Y106.165 E8.05605
G1 X86.749 Y105.112 E8.10627
G1 X87.009 Y104.172 E8.15168
G1 X87.626 Y102.07 E8.25369
G1 X87.846 Y101.35 E8.28875
G1 X88.175 Y100.434 E8.33407
G1 X88.551 Y99.614 E8.37607
G1 X89.071 Y98.705 E8.42484
G1 X89.627 Y97.912 E8.46993
G1 X90.19 Y97.234 E8.51097
G1 X90.675 Y96.703 E8.54446
G1 X92.473 Y94.805 E8.6662
G1 X93.068 Y94.196 E8.70584
G0 F6000 X93.341 Y94.488
G1 F1200 X94.026 Y93.848 E8.74949
G1 X94.766 Y93.27 E8.79322
G1 X95.524 Y92.778 E8.83529
G1 X96.385 Y92.322 E8.88066
G1 X97.217 Y91.972 E8.92269
G1 X97.892 Y91.746 E8.95584
G1 X98.769 Y91.487 E8.99842
G1 X101.109 Y90.831 E9.11158
G1 X101.777 Y90.655 E9.14375
G1 X102.695 Y90.458 E9.18746
G1 X103.626 Y90.342 E9.23115
G1 X104.56 Y90.308 E9.27467
G1 X105.272 Y90.338 E9.30785
G1 X105.766 Y90.376 E9.33092
G1 X107.531 Y90.543 E9.41348
G1 X110.047 Y90.711 E9.53089
G1 X112.637 Y90.81 E9.65158
G1 X115.116 Y90.834 E9.76702
G1 X117.663 Y90.787 E9.88564
G1 X120.152 Y90.675 E10.00166
G1 X121.055 Y90.673 E10.0437
G1 X122.033 Y90.759 E10.08942
G1 X123.263 Y91 E10.14778
G1 X124.441 Y91.31 E10.2045
G1 X125.715 Y91.677 E10.26624
G1 X126.604 Y91.978 E10.30994
G1 X127.469 Y92.36 E10.35397
G1 X128.609 Y93.014 E10.41517
G1 X130.896 Y94.526 E10.54283
G1 X133.037 Y95.855 E10.66017
G1 X135.214 Y97.124 E10.77751
G1 X137.445 Y98.341 E10.89584
G1 X139.673 Y99.474 E11.01223
G1 X141.015 Y100.113 E11.08144
G1 X141.64 Y100.426 E11.11399
G1 X142.459 Y100.885 E11.15771
G1 X143.24 Y101.42 E11.20179
G1 X144.277 Y102.31 E11.26542
G1 X144.727 Y102.761 E11.29509
G1 X146.775 Y104.92 E11.43365
G1 X147.263 Y105.45 E11.4672
G1 X147.867 Y106.17 E11.51096
G1 X148.404 Y106.939 E11.55464
G1 X148.855 Y107.721 E11.59667
G1 X149.264 Y108.604 E11.64198
G1 X149.566 Y109.441 E11.68342
G1 X149.781 Y110.132 E11.71711
G1 X150.448 Y112.417 E11.82795
G1 X150.676 Y113.239 E11.86768
G1 X150.884 Y114.154 E11.91137
G1 X151.011 Y115.084 E11.95508
G1 X151.055 Y116.021 E11.99875
G1 X151.016 Y116.96 E12.04252
G1 X150.899 Y117.855 E12.08454
G1 X150.717 Y118.702 E12.12489
G1 X150.545 Y119.358 E12.15646
G1 X149.822 Y121.94 E12.28132
G1 X149.62 Y122.623 E12.31448
G1 X149.314 Y123.51 E12.35817
G1 X148.931 Y124.367 E12.40188
G1 X148.473 Y125.186 E12.44558
G1 X147.94 Y125.967 E12.48961
G1 X147.091 Y126.966 E12.55065
G1 X146.525 Y127.552 E12.58859
G1 X144.757 Y129.32 E12.70501
G1 X144.274 Y129.79 E12.7364
G1 X143.366 Y130.578 E12.79238
G1 X142.651 Y131.131 E12.83447
G1 X141.868 Y131.719 E12.88006
G1 X139.927 Y133.264 E12.99558
G1 X137.944 Y134.934 E13.1163
G1 X136.077 Y136.599 E13.23278
G1 X134.198 Y138.373 E13.35311
G1 X133.743 Y138.814 E13.38262
G1 X133.04 Y139.436 E13.42632
G1 X132.285 Y139.991 E13.46996
G1 X131.482 Y140.48 E13.51374
G1 X130.672 Y140.88 E13.5558
G1 X129.407 Y141.347 E13.61859
G1 X128.368 Y141.653 E13.66902
G1 X127.048 Y142.011 E13.73271
G1 X126.132 Y142.216 E13.77642
G1 X125.202 Y142.338 E13.82009
G1 X124.263 Y142.378 E13.86386
G1 X123.317 Y142.334 E13.90795
G1 X120.977 Y142.115 E14.01739
G1 X118.456 Y141.946 E14.13504
G1 X115.924 Y141.849 E14.25303
G1 X113.418 Y141.823 E14.36973
G1 X110.471 Y141.878 E14.50697
G1 X109.569 Y141.855 E14.54899
G1 X108.6 Y141.745 E14.5944
G1 X107.677 Y141.553 E14.6383
G1 X107.035 Y141.382 E14.66923
G1 X105.263 Y140.856 E14.7553
G1 X104.378 Y140.548 E14.79894
G1 X103.521 Y140.163 E14.84269
G1 X102.703 Y139.704 E14.88636
G1 X101.926 Y139.172 E14.93021
G1 X101.07 Y138.456 E14.98217
G1 X100.641 Y138.049 E15.00971
G1 X99.567 Y136.979 E15.0803
G1 X99.097 Y136.495 E15.11172
G1 X98.464 Y135.779 E15.15622
G1 X97.91 Y135.031 E15.19956
G1 X97.643 Y134.613 E15.22266
G1 X97.123 Y133.755 E15.26937
G1 X96.651 Y132.949 E15.31287
G1 X95.299 Y130.79 E15.43148
G1 X93.468 Y128.059 E15.58459
G1 X92.981 Y127.256 E15.62832
G1 X92.582 Y126.446 E15.67036
G1 X92.188 Y125.407 E15.7221
G1 X91.265 Y122.528 E15.86288
G1 X90.435 Y120.173 E15.97915
G1 X89.517 Y117.788 E16.09815
G1 X88.562 Y115.492 E16.21394
G1 X88.241 Y114.61 E16.25765
G1 X88.037 Y113.953 E16.28968
G1 X87.32 Y111.504 E16.4085
G1 X87.135 Y110.831 E16.441
G1 X86.928 Y109.916 E16.48469
G1 X86.801 Y108.986 E16.52839
G1 X86.757 Y108.049 E16.57207
G1 X86.797 Y107.111 E16.61579
G1 X86.913 Y106.216 E16.65781
G1 X87.135 Y105.219 E16.70537
G1 X87.393 Y104.285 E16.75049
G1 X88.008 Y102.187 E16.8523
G1 X88.223 Y101.485 E16.88648
G1 X88.539 Y100.601 E16.9302
G1 X88.915 Y99.781 E16.9722
G1 X89.399 Y98.934 E17.01763
G1 X89.935 Y98.167 E17.0612
G1 X90.485 Y97.504 E17.10131
G1 X90.965 Y96.978 E17.13447
G1 X92.759 Y95.084 E17.25594
G1 X93.341 Y94.488 E17.29473
G0 F6000 X93.614 Y94.78
G1 F1200 X94.273 Y94.163 E17.33677
G1 X94.984 Y93.606 E17.37882
G1 X95.742 Y93.114 E17.4209
G1 X96.54 Y92.691 E17.46296
G1 X97.372 Y92.341 E17.50499
G1 X98.005 Y92.13 E17.53606
G1 X98.877 Y91.872 E17.5784
G1 X101.211 Y91.218 E17.69127
G1 X101.862 Y91.046 E17.72262
G1 X102.745 Y90.855 E17.76469
G1 X103.641 Y90.742 E17.80674
G1 X104.543 Y90.708 E17.84877
G1 X105.242 Y90.737 E17.88135
G1 X105.728 Y90.774 E17.90404
G1 X107.504 Y90.942 E17.98711
G1 X110.032 Y91.111 E18.10509
G1 X112.622 Y91.21 E18.22578
G1 X115.119 Y91.234 E18.34205
G1 X117.681 Y91.187 E18.46137
G1 X120.153 Y91.075 E18.5766
G1 X121.056 Y91.073 E18.61864
G1 X121.956 Y91.152 E18.66071
G1 X123.186 Y91.393 E18.71908
G1 X124.33 Y91.694 E18.77416
G1 X125.587 Y92.056 E18.83507
G1 X126.443 Y92.344 E18.87712
G1 X127.27 Y92.707 E18.91918
G1 X128.388 Y93.348 E18.97919
G1 X130.675 Y94.86 E19.10685
G1 X132.836 Y96.201 E19.22527
G1 X135.022 Y97.475 E19.34309
G1 X137.264 Y98.698 E19.46201
G1 X139.492 Y99.831 E19.5784
G1 X140.836 Y100.471 E19.64771
G1 X141.445 Y100.775 E19.67941
G1 X142.234 Y101.215 E19.72147
G1 X142.98 Y101.724 E19.76352
G1 X143.994 Y102.593 E19.82571
G1 X144.437 Y103.036 E19.85488
G1 X146.481 Y105.191 E19.99318
G1 X146.957 Y105.708 E20.02591
G1 X147.539 Y106.399 E20.06797
G1 X148.057 Y107.139 E20.11003
G1 X148.508 Y107.921 E20.15207
G1 X148.888 Y108.74 E20.19411
G1 X149.184 Y109.56 E20.23471
G1 X149.397 Y110.244 E20.26806
G1 X150.063 Y112.524 E20.37867
G1 X150.286 Y113.328 E20.41752
G1 X150.488 Y114.209 E20.45961
G1 X150.611 Y115.103 E20.50163
G1 X150.655 Y116.005 E20.54368
G1 X150.619 Y116.908 E20.58576
G1 X150.502 Y117.803 E20.62779
G1 X150.33 Y118.601 E20.6658
G1 X150.16 Y119.25 E20.69704
G1 X149.438 Y121.827 E20.82165
G1 X149.242 Y122.493 E20.85398
G1 X148.949 Y123.347 E20.89602
G1 X148.582 Y124.172 E20.93807
G1 X148.142 Y124.961 E20.98013
G1 X147.635 Y125.708 E21.02217
G1 X146.786 Y126.707 E21.08322
G1 X146.242 Y127.269 E21.11964
G1 X144.478 Y129.033 E21.2358
G1 X143.995 Y129.503 E21.26718
G1 X143.121 Y130.262 E21.32108
G1 X142.411 Y130.811 E21.36288
G1 X141.628 Y131.399 E21.40847
G1 X139.669 Y132.958 E21.52505
G1 X137.686 Y134.628 E21.64577
G1 X135.803 Y136.309 E21.76331
G1 X133.924 Y138.083 E21.88363
G1 X133.478 Y138.515 E21.91255
G1 X132.802 Y139.114 E21.9546
G1 X132.076 Y139.65 E21.99662
G1 X131.305 Y140.121 E22.03869
G1 X130.495 Y140.521 E22.08076
G1 X129.294 Y140.963 E22.14035
G1 X128.263 Y141.267 E22.1904
G1 X126.96 Y141.621 E22.25327
G1 X126.079 Y141.819 E22.29532
G1 X125.184 Y141.938 E22.33736
G1 X124.282 Y141.978 E22.3794
G1 X123.336 Y141.934 E22.4235
G1 X121.004 Y141.716 E22.53256
G1 X118.471 Y141.546 E22.65077
G1 X115.939 Y141.449 E22.76876
G1 X113.415 Y141.423 E22.8863
G1 X110.481 Y141.478 E23.02294
G1 X109.579 Y141.455 E23.06495
G1 X108.681 Y141.353 E23.10704
G1 X107.758 Y141.161 E23.15094
G1 X107.149 Y140.998 E23.18029
G1 X105.394 Y140.478 E23.26552
G1 X104.541 Y140.183 E23.30755
G1 X103.716 Y139.814 E23.34963
G1 X102.928 Y139.374 E23.39166
G1 X102.182 Y138.865 E23.43371
G1 X101.345 Y138.166 E23.48449
G1 X100.923 Y137.766 E23.51156
G1 X99.854 Y136.7 E23.58186
G1 X99.384 Y136.216 E23.61328
G1 X98.785 Y135.541 E23.6553
G1 X98.247 Y134.815 E23.69737
G1 X97.985 Y134.406 E23.71999
G1 X97.468 Y133.553 E23.76644
G1 X96.996 Y132.747 E23.80993
G1 X95.638 Y130.578 E23.92909
G1 X93.81 Y127.851 E24.08196
G1 X93.34 Y127.079 E24.12404
G1 X92.941 Y126.269 E24.16609
G1 X92.569 Y125.285 E24.21507
G1 X91.646 Y122.406 E24.35585
G1 X90.812 Y120.04 E24.47267
G1 X89.89 Y117.644 E24.59221
G1 X88.938 Y115.355 E24.70765
G1 X88.623 Y114.491 E24.75047
G1 X88.421 Y113.841 E24.78216
G1 X87.706 Y111.397 E24.90074
G1 X87.525 Y110.742 E24.93238
G1 X87.324 Y109.862 E24.97441
G1 X87.201 Y108.967 E25.01648
G1 X87.157 Y108.065 E25.05853
G1 X87.194 Y107.162 E25.10061
G1 X87.31 Y106.267 E25.14263
G1 X87.521 Y105.325 E25.18758
G1 X87.777 Y104.397 E25.23241
G1 X88.39 Y102.304 E25.33396
G1 X88.6 Y101.619 E25.36732
G1 X88.903 Y100.768 E25.40939
G1 X89.279 Y99.948 E25.45139
G1 X89.727 Y99.163 E25.49348
G1 X90.243 Y98.422 E25.53553
G1 X90.781 Y97.773 E25.57478
G1 X91.255 Y97.253 E25.60754
G1 X93.046 Y95.363 E25.72879
G1 X93.614 Y94.78 E25.76669
G1 F2700 E20.76669
G0 F6000 X101.038 Y102.084
G1 F2700 E25.76669
G1 F1200 X104.534 Y101.111 E25.93566
G1 X108.027 Y102.091 E26.10459
G1 X110.531 Y104.735 E26.27416
G1 X111.503 Y108.065 E26.43569
G1 X110.53 Y111.541 E26.60376
G1 X108.027 Y114.044 E26.76859
G1 X107.38 Y114.225 E26.79988
G1 X107.276 Y114.295 E26.80571
G1 X107.234 Y114.418 E26.81176
G1 X107.234 Y114.668 E26.82341
G1 X107.273 Y114.787 E26.82924
G1 X107.379 Y114.86 E26.83523
G1 X107.894 Y115.006 E26.86016
G1 X108.793 Y115.953 E26.92096
G1 X109.138 Y117.136 E26.97834
G1 X108.763 Y118.475 E27.04309
G1 X108.769 Y118.6 E27.04891
G1 X108.811 Y118.667 E27.05259
G1 X109.093 Y118.964 E27.07167
G1 X109.443 Y120.164 E27.12987
G1 X109.091 Y121.421 E27.19065
G1 X108.703 Y121.811 E27.21627
G1 X108.653 Y121.898 E27.22094
G1 X108.588 Y122.127 E27.23203
G1 X107.337 Y123.378 E27.31441
G1 X105.604 Y123.863 E27.3982
G1 X103.876 Y123.368 E27.4819
G1 X102.556 Y122.061 E27.5684
G1 X102.077 Y120.42 E27.648
G1 X102.569 Y118.767 E27.72831
G1 X103.867 Y117.411 E27.81571
G1 X103.989 Y117.376 E27.82162
G1 X104.092 Y117.307 E27.8274
G1 X104.126 Y117.24 E27.8309
G1 X104.499 Y115.971 E27.89249
G1 X104.996 Y115.451 E27.92598
G1 X105.049 Y115.338 E27.93179
G1 X105.026 Y115.216 E27.93757
G1 X104.907 Y115.121 E27.94466
G1 X101.223 Y114.045 E28.12337
G1 X98.562 Y111.385 E28.29857
G1 X97.576 Y108.032 E28.46131
G1 X98.537 Y104.717 E28.62203
G1 X101.038 Y102.084 E28.79112
G0 F6000 X101.251 Y102.44
G1 F1200 X104.533 Y101.526 E28.94976
G1 X107.812 Y102.446 E29.10834
G1 X110.174 Y104.94 E29.26829
G1 X111.087 Y108.068 E29.42002
G1 X110.173 Y111.332 E29.57785
G1 X107.818 Y113.687 E29.73293
G1 X107.272 Y113.84 E29.75934
G1 X107.076 Y113.936 E29.7695
G1 X106.928 Y114.096 E29.77965
G1 X106.846 Y114.298 E29.7898
G1 X106.834 Y114.418 E29.79541
G1 X106.834 Y114.668 E29.80706
G1 X106.874 Y114.883 E29.81724
G1 X106.987 Y115.069 E29.82737
G1 X107.16 Y115.202 E29.83753
G1 X107.27 Y115.245 E29.84303
G1 X107.68 Y115.361 E29.86287
G1 X108.436 Y116.157 E29.91399
G1 X108.722 Y117.139 E29.96162
G1 X108.378 Y118.367 E30.021
G1 X108.359 Y118.585 E30.03119
G1 X108.418 Y118.794 E30.0413
G1 X108.521 Y118.942 E30.0497
G1 X108.736 Y119.168 E30.06422
G1 X109.027 Y120.167 E30.11267
G1 X108.734 Y121.214 E30.1633
G1 X108.42 Y121.529 E30.18401
G1 X108.268 Y121.789 E30.19803
G1 X108.232 Y121.917 E30.20422
G1 X107.128 Y123.021 E30.27693
G1 X105.607 Y123.447 E30.35047
G1 X104.083 Y123.011 E30.42429
G1 X102.912 Y121.851 E30.50104
G1 X102.493 Y120.42 E30.57047
G1 X102.924 Y118.975 E30.64068
G1 X104.081 Y117.766 E30.7186
G1 X104.098 Y117.761 E30.71943
G1 X104.293 Y117.665 E30.72955
G1 X104.441 Y117.504 E30.73973
G1 X104.51 Y117.353 E30.74746
G1 X104.856 Y116.176 E30.80459
